!!!!SEGMENT: pl-kk--kk-i-263--001_anonim--rorate-caeli.krn
!!!cenid: 16xx:779
!!!COM: Anonim
!!!COM-rismid: pe30004985
!!!CDT:
!!!CNT:
!!!OTL: Rorate caeli
!!!PDT:
!!!AGN: Sacred
!!!SMS-siglum: PL-Kk
!!!SMS-shelfmark: Kk.I.263
!!!SMS-shelfwork: 001 W
!!!SMS-variant:
!!!SMS-altvar:
!!!NIFC-rismid: 1001143733
!!!URL-scan: http://repozytorium.nifc.pl/skany/pl-kk-nut--i-263
!!!ONB-nifc: UWAGA: utwory w zbiorze: 1. Rorate caeli, 2. Alleluia Ave Maria
!!!AIN: 1 alto 2 empty 1 tenor 1 vox
!!!key:
**kern	**text	**kern	**text	**kern	**text	**kern	**text	**kern	**text
*part5	*part5	*part4	*part4	*part3	*part3	*part2	*part2	*part1	*part1
*staff5	*staff5	*staff4	*staff4	*staff3	*staff3	*staff2	*staff2	*staff1	*staff1
*Iempty	*	*Iempty	*	*Itenor	*	*Ialto	*	*Ivox	*
*I"Baſso Ripieno.	*	*I"Baſso.	*	*I"Tenore in Alto.	*	*I"Alto.	*	*I"Canto.	*
*I'B rip	*	*I'B	*	*I'T	*	*I'A	*	*I'S.	*
*clefF4	*	*clefF4	*	*clefC3	*	*clefC3	*	*clefC1	*
*k[b-]	*	*k[b-]	*	*k[b-]	*	*k[b-]	*	*k[b-]	*
*F:	*	*F:	*	*F:	*	*F:	*	*F:	*
*M1/2	*	*M1/2	*	*M1/2	*	*M1/2	*	*M1/2	*
*met(c|)	*	*met(c|)	*	*met(c|)	*	*met(c|)	*	*met(c|)	*
=1-	=1-	=1-	=1-	=1-	=1-	=1-	=1-	=1-	=1-
*	*	*2\right	*	*	*	*	*	*	*
!LO:TX:a:t=P:problem=inicjał "R" na pięciolinii przed kluczem	!	!LO:TX:a:t=P:problem=inicjał "R" na pięciolinii przed kluczem	!	!LO:TX:a:t=P:problem=inicjał "R" na pięciolinii przed kluczem	!	!LO:TX:a:t=P:problem=inicjał "R" na pięciolinii przed kluczem	!	!LO:TX:a:t=P:problem=inicjał "R" na pięciolinii przed kluczem	!
!LO:TX:a:t=P::problem=dwa znaki przykluczowe w źródle&colon; BB-, B-	!	!LO:TX:i:a:t=super&colon; Vidi aquam Egredientem	!	!	!	!	!	!	!
!	!	!LO:TX:a:t=P::problem=dwa znaki przykluczowe w źródle&colon; BB-, B-	!	!	!	!	!	!LO:N:vis=0	!
!	!	!	!	!LO:TX:t=P:problem=kreska pseudotaktowa	!	!	!	!LO:TX:t=P:problem=kreska pseudotaktowa	!
1C	Ro-	1C	Ro-	1r	.	2r	.	0r	.
*	*	*	*	*	*	*2\right	*	*	*
!	!	!	!	!	!	!LO:TX:t=P:problem=kreska pseudotaktowa	!	!	!
.	.	.	.	.	.	2g\	Ro-	.	.
*lig	*	*lig	*	*	*	*	*	*	*
1C	-ra-	1C	-ra-	2r	.	4e\	-ra-	.	.
.	.	.	.	.	.	4f\	.	.	.
*	*	*	*	*2\right	*	*	*	*	*
!	!	!	!	!LO:TX:t=P:problem=kreska pseudotaktowa	!	!	!	!	!
.	.	.	.	2c/	Ro-	4g\	.	.	.
!	!	!	!	!	!	!LO:TX:t=P:problem=kreska pseudotaktowa	!	!	!
.	.	.	.	.	.	4e\	.	.	.
=2-	=2-	=2-	=2-	=2-	=2-	=2-	=2-	=2-	=2-
1F	.	1F	.	4A/	-ra-	2f\	.	2r	.
.	.	.	.	4G/	.	.	.	.	.
*	*	*	*	*	*	*	*	*2\right	*
!	!	!	!	!	!	!	!	!LO:TX:t=P:problem=kreska pseudotaktowa	!
.	.	.	.	4A/	.	2.c/	-te	2cc\	Ro-
!	!	!	!	!LO:TX:t=P:problem=kreska pseudotaktowa	!	!	!	!	!
.	.	.	.	4B-/	.	.	.	.	.
*Xlig	*	*Xlig	*	*	*	*	*	*	*
*lig	*	*lig	*	*	*	*	*	*	*
1E	-te	1E	-te	2c\	.	.	.	4g/	-ra-
.	.	.	.	.	.	4d\	.	4f/	.
!	!	!	!	!LO:TX:t=P:problem=kreska pseudotaktowa	!	!LO:TX:t=P:problem=kreska pseudotaktowa	!	!	!
.	.	.	.	2c\	-te	2e\	Ro-	4g/	.
!	!	!	!	!	!	!	!	!LO:TX:t=P:problem=kreska pseudotaktowa	!
.	.	.	.	.	.	.	.	4a/	.
=3-	=3-	=3-	=3-	=3-	=3-	=3-	=3-	=3-	=3-
!LO:TX:t=P:problem=kreska pseudotaktowa	!	!LO:TX:t=P:problem=kreska pseudotaktowa	!	!	!	!	!	!	!
1D	.	1D	.	2d\	ro-	2f\	-ra-	4b-\	.
.	.	.	.	.	.	.	.	4a\	.
.	.	.	.	2.A/	.	2d\	-te	4f/	.
!	!	!	!	!	!	!	!	!LO:TX:t=P:problem=kreska pseudotaktowa	!
.	.	.	.	.	.	.	.	4g/	.
*Xlig	*	*Xlig	*	*	*	*	*	*	*
*lig	*	*lig	*	*	*	*	*	*	*
!	!	!	!	!	!	!LO:TX:t=P:problem=kreska pseudotaktowa	!	!	!
1F	Cae-	1F	Cae-	.	.	1c	cae-	2a\	.
.	.	.	.	4B-/	.	.	.	.	.
!	!	!	!	!	!	!	!	!LO:TX:t=P:problem=kreska pseudotaktowa	!
.	.	.	.	4c/	.	.	.	2a\	-te
.	.	.	.	4A/	.	.	.	.	.
=4-	=4-	=4-	=4-	=4-	=4-	=4-	=4-	=4-	=4-
1D	.	1D	.	2B-X/	-ra-	2d,\	-li	4f/	Cae-
.	.	.	.	.	.	.	.	4g/	.
*	*	*	*	*	*	*	*ij	*	*
.	.	.	.	2A/	-te	1d\	cae-	4a/	.
!	!	!	!	!	!	!	!	!LO:TX:t=P:problem=kreska pseudotaktowa	!
.	.	.	.	.	.	.	.	4f/	.
*Xlig	*	*Xlig	*	*	*	*	*	*	*
*lig	*	*lig	*	*	*	*	*	*	*
!	!	!	!	!LO:TX:t=P:problem=kreska pseudotaktowa	!	!	!	!	!
1E-X	-li	1E-X	-li	1G,	.	.	.	1g	.
!	!	!	!	!	!	!LO:TX:t=P:problem=kreska pseudotaktowa	!	!	!
.	.	.	.	.	.	2c/	.	.	.
=5-	=5-	=5-	=5-	=5-	=5-	=5-	=5-	=5-	=5-
!LO:TX:t=P:problem=kreska pseudotaktowa	!	!LO:TX:t=P:problem=kreska pseudotaktowa	!	!	!	!	!	!	!
1D	.	1D,	.	2A/	cae-	2d,\	-li	2f,/	-li
*	*	*	*	*	*	*	*Xij	*	*
!	!	!	!	!	!	!LO:TX:t=P:problem=kreska pseudotaktowa	!	!LO:TX:t=P:problem=kreska pseudotaktowa	!
.	.	.	.	2F/	.	2f\	de-	2a\	de-
*Xlig	*	*Xlig	*	*	*	*	*	*	*
*lig	*	*lig	*	*	*	*	*	*	*
!	!	!	!	!LO:TX:t=P:problem=kreska pseudotaktowa	!	!	!	!	!
1BB-X	de-	1BB-X	de-	1B-	-li	4d\	.	2.b-\	.
.	.	.	.	.	.	4e\	.	.	.
.	.	.	.	.	.	4f\	.	.	.
!	!	!	!	!	!	!LO:TX:t=P:problem=kreska pseudotaktowa	!	!LO:TX:t=P:problem=kreska pseudotaktowa	!
.	.	.	.	.	.	4d\	.	4a\	-su-
=6-	=6-	=6-	=6-	=6-	=6-	=6-	=6-	=6-	=6-
1C	.	1C	.	2r	.	4e\	.	2g,\	-per
.	.	.	.	.	.	4d\	.	.	.
!	!	!	!	!LO:TX:t=P:problem=kreska pseudotaktowa	!	!	!	!	!
.	.	.	.	2G/	de-	4e\	.	2.cc\	de
!	!	!	!	!	!	!LO:TX:t=P:problem=kreska pseudotaktowa	!	!	!
.	.	.	.	.	.	4f\	.	.	.
*Xlig	*	*Xlig	*	*	*	*	*	*	*
*lig	*	*lig	*	*	*	*	*	*	*
1C	.	1C	.	2.c/	.	2g\	.	.	.
.	.	.	.	.	.	.	.	4b-\	.
.	.	.	.	.	.	2e\	-su-	4a\	.
!	!	!	!	!LO:TX:t=P:problem=kreska pseudotaktowa	!	!	!	!LO:TX:t=P:problem=kreska pseudotaktowa	!
.	.	.	.	4B-/	.	.	.	4g\	.
=7-	=7-	=7-	=7-	=7-	=7-	=7-	=7-	=7-	=7-
!	!	!	!	!	!	!LO:TX:t=P:problem=kreska pseudotaktowa	!	!	!
1F	.	1F	.	4A/	.	1f	-per	4a\	.
.	.	.	.	4G/	.	.	.	4b-\	.
!	!	!	!	!LO:TX:t=P:problem=kreska pseudotaktowa	!	!	!	!	!
.	.	.	.	2A/	-su-	.	.	4cc\	.
!	!	!	!	!	!	!	!	!LO:TX:t=P:problem=kreska pseudotaktowa	!
.	.	.	.	.	.	.	.	4a\	.
!	!	!	!	!	!	!	!	!LO:TX:t=P:problem=kreska pseudotaktowa	!
1G	.	1G	.	4G/	-per	2r	.	1b-	.
.	.	.	.	4A/	.	.	.	.	.
!	!	!	!	!	!	!LO:TX:t=P:problem=kreska pseudotaktowa	!	!	!
.	.	.	.	4B-/	.	(>2d\	de	.	.
!	!	!	!	!LO:TX:t=P:problem=kreska pseudotaktowa	!	!	!	!	!
.	.	.	.	4c/	.	.	.	.	.
*Xlig	*	*Xlig	*	*	*	*	*	*	*
=8-	=8-	=8-	=8-	=8-	=8-	=8-	=8-	=8-	=8-
*lig	*	*lig	*	*	*	*	*	*	*
1D	.	1D	-su-	4d\	.	2.f\)	.	4a\	.
.	.	.	.	4e\	.	.	.	4g\	.
.	.	.	.	1f\	.	.	.	4a\	su-
!	!	!	!	!	!	!LO:TX:t=P:problem=kreska pseudotaktowa	!	!LO:TX:t=P:problem=kreska pseudotaktowa	!
.	.	.	.	.	.	4f\	su-	4b-\	.
!	!	!	!	!	!	!	!	!LO:TX:t=P:problem=kreska pseudotaktowa	!
1C	-su-	1C	.	.	.	(>4e\	-per	1cc,	-per
.	.	.	.	.	.	4d\	.	.	.
*	*	*	*	*custos:f	*	*	*	*	*
!	!	!	!	!LO:TX:t=P:problem=kreska pseudotaktowa	!	!	!	!	!
.	.	.	.	2e\	.	4c/)	.	.	.
!	!	!	!	!	!	!LO:TX:t=P:problem=kreska pseudotaktowa	!	!	!
!	!	!	!	!	!	!LO:TX:a:t=P:problem=♭ above	!	!	!
.	.	.	.	.	.	4B-X/	.	.	.
*Xlig	*	*Xlig	*	*	*	*	*	*	*
!	!	!	!	!LO:LB:g=original	!	!LO:LB:g=original	!	!	!
=9-	=9-	=9-	=9-	=9-	=9-	=9-	=9-	=9-	=9-
*lig	*	*lig	*	*	*	*	*	*	*
1D	-per	1D	-per	4f\	de-	2A,/	.	2r	.
.	.	.	.	4e\	.	.	.	.	.
!	!	!	!	!	!	!LO:TX:t=P:problem=kreska pseudotaktowa	!	!LO:TX:t=P:problem=kreska pseudotaktowa	!
.	.	.	.	4d\	.	2B-/	de-	2f/	et
!	!	!	!	!LO:TX:t=P:problem=kreska pseudotaktowa	!	!	!	!	!
.	.	.	.	4c\	.	.	.	.	.
*	*	*	*	*	*	*	*	*custos:f	*
!LO:TX:a:t=P:problem=♭ above	!	!LO:TX:a:t=P:problem=♭ above	!	!	!	!	!	!LO:TX:t=P:problem=kreska pseudotaktowa	!
1E-X	.	1E-X	.	4B-/	.	4G/	.	1g	nu-
.	.	.	.	4A/	.	4A/	.	.	.
!	!	!	!	!LO:TX:t=P:problem=kreska pseudotaktowa	!	!	!	!	!
.	.	.	.	2G/	.	4B-/	.	.	.
!	!	!	!	!	!	!LO:TX:t=P:problem=kreska pseudotaktowa	!	!	!
.	.	.	.	.	.	4c/	.	.	.
!	!	!	!	!	!	!	!	!LO:LB:g=original	!
=10-	=10-	=10-	=10-	=10-	=10-	=10-	=10-	=10-	=10-
!LO:TX:t=P:problem=kreska pseudotaktowa	!	!LO:TX:t=P:problem=kreska pseudotaktowa	!	!	!	!	!	!	!
1D	.	1D	.	2A/	-su-	4d\	.	2f,/	-bes
.	.	.	.	.	.	4e\	.	.	.
*	*	*	*	*	*	*	*	*	*ij
!	!	!	!	!	!	!	!	!LO:TX:t=P:problem=kreska pseudotaktowa	!
.	.	.	.	2.d\	-per	2.f\	.	2a\	et
*Xlig	*	*Xlig	*	*	*	*	*	*	*
*lig	*	*lig	*	*	*	*	*	*	*
1BB-	et	1BB-	et	.	.	.	.	1b-	nu-
.	.	.	.	4e\	et	4e\	-su-	.	.
!	!	!	!	!LO:TX:t=P:problem=kreska pseudotaktowa	!	!LO:TX:t=P:problem=kreska pseudotaktowa	!	!	!
.	.	.	.	2f\	nu-	2d\	-per	.	.
=11-	=11-	=11-	=11-	=11-	=11-	=11-	=11-	=11-	=11-
!	!	!LO:TX:t=P:problem=kreska pseudotaktowa	!	!	!	!	!	!	!
1C	.	1C	.	4e\	.	2.c\	de-	2g,\	-bes
*	*	*	*	*	*	*	*	*	*Xij
.	.	.	.	4d\	.	.	.	.	.
!	!	!	!	!	!	!	!	!LO:TX:t=P:problem=kreska pseudotaktowa	!
.	.	.	.	(>4e\	-bes	.	.	2cc\	et
!	!	!	!	!LO:TX:t=P:problem=kreska pseudotaktowa	!	!LO:TX:t=P:problem=kreska pseudotaktowa	!	!	!
.	.	.	.	4f\)	.	4d\	.	.	.
*Xlig	*	*Xlig	*	*	*	*	*	*	*
!LO:LB:g=original	!	!	!	!	!	!	!	!	!
*lig	*	*lig	*	*	*	*	*	*	*
1C	nu-	1C	nu-	4g\	.	4e\	.	2.cc\	nu-
.	.	.	.	4f\	plu-	4f\	.	.	.
!	!	!	!	!	!	!LO:TX:t=P:problem=kreska pseudotaktowa	!	!	!
.	.	.	.	4e\	.	2g\	-su-	.	.
!	!	!	!	!LO:TX:t=P:problem=kreska pseudotaktowa	!	!	!	!LO:TX:t=P:problem=kreska pseudotaktowa	!
.	.	.	.	4d\	.	.	.	4b-\	.
=12-	=12-	=12-	=12-	=12-	=12-	=12-	=12-	=12-	=12-
1F	.	1F	.	4c/	.	2f,\	-per	4a\	.
.	.	.	.	4B-/	.	.	.	4g\	.
!	!	!	!	!LO:TX:t=P:problem=kreska pseudotaktowa	!	!LO:TX:t=P:problem=kreska pseudotaktowa	!	!	!
.	.	.	.	2A/	.	2c/	et	4f/	.
.	.	.	.	.	.	.	.	4e/	.
*Xlig	*	*Xlig	*	*	*	*	*	*	*
*lig	*	*lig	*	*	*	*	*	*	*
!	!	!	!	!	!	!LO:TX:t=P:problem=kreska pseudotaktowa	!	!	!
1G	.	1G	.	1B-,	-ant	1g	nu-	2d,/	-bes
.	.	.	.	.	.	.	.	2.dd\	plu-
=13-	=13-	=13-	=13-	=13-	=13-	=13-	=13-	=13-	=13-
1D	.	1D	.	2.A/	plu-	2f,\	-bes	.	.
.	.	.	.	.	.	.	.	4cc\	.
.	.	.	.	.	.	2.f\	et	4b-\	.
!	!	!	!	!LO:TX:t=P:problem=kreska pseudotaktowa	!	!	!	!LO:TX:t=P:problem=kreska pseudotaktowa	!
.	.	.	.	4G/	.	.	.	4a\	.
*Xlig	*	*Xlig	*	*	*	*	*	*	*
*lig	*	*lig	*	*	*	*	*	*	*
1D	bes	1D	bes	2G/	.	.	.	4b-\	.
.	.	.	.	.	.	4e\	.	4a\	.
!	!	!	!	!LO:TX:t=P:problem=kreska pseudotaktowa	!	!LO:TX:t=P:problem=kreska pseudotaktowa	!	!	!
.	.	.	.	2B-/	-ant	2d\	.	4f/	.
!	!	!	!	!	!	!	!	!LO:TX:t=P:problem=kreska pseudotaktowa	!
.	.	.	.	.	.	.	.	4g/	.
=14-	=14-	=14-	=14-	=14-	=14-	=14-	=14-	=14-	=14-
!LO:TX:t=P:problem=kreska pseudotaktowa	!	!LO:TX:t=P:problem=kreska pseudotaktowa	!	!	!	!	!	!	!
1C	.	1C	.	2.c/	Ju-	1e-X	nu-	2a\	.
!	!	!	!	!	!	!	!	!LO:TX:t=P:problem=kreska pseudotaktowa	!
.	.	.	.	.	.	.	.	2g\	-ant
!	!	!	!	!LO:TX:t=P:problem=kreska pseudotaktowa	!	!	!	!	!
.	.	.	.	4B-/	.	.	.	.	.
*Xlig	*	*Xlig	*	*	*	*	*	*	*
*lig	*	*lig	*	*	*	*	*	*	*
!	!	!	!	!LO:TX:t=P:problem=kreska pseudotaktowa	!	!	!	!	!
1D	plu-	1D	plu-	1A	.	2.d\	-bes	4f/	Ju-
.	.	.	.	.	.	.	.	4g/	.
.	.	.	.	.	.	.	.	4a/	.
!	!	!	!	!	!	!LO:TX:t=P:problem=kreska pseudotaktowa	!	!LO:TX:t=P:problem=kreska pseudotaktowa	!
.	.	.	.	.	.	4c\	.	4f/	.
=15-	=15-	=15-	=15-	=15-	=15-	=15-	=15-	=15-	=15-
!LO:TX:a:t=P:problem=♭ above	!	!	!	!	!	!	!	!	!
1E-X	.	1E-X	.	2G,/	-stum	4B-/	.	0g	.
.	.	.	.	.	.	4A/	.	.	.
!	!	!	!	!LO:TX:t=P:problem=kreska pseudotaktowa	!	!LO:TX:t=P:problem=kreska pseudotaktowa	!	!	!
.	.	.	.	2B-/	.	[<2G/	.	.	.
*Xlig	*	*Xlig	*	*	*	*	*	*	*
!LO:TX:t=P:problem=kreska pseudotaktowa	!	!LO:TX:t=P:problem=kreska pseudotaktowa	!	!	!	!	!	!	!
1C	-ant	1C	-ant	1e-X	ape-	2G/]	.	.	.
!	!	!	!	!	!	!LO:TX:t=P:problem=kreska pseudotaktowa	!	!	!
.	.	.	.	.	.	2c/	plu-	.	.
!	!	!LO:LB:g=original	!	!	!	!	!	!	!
=16-	=16-	=16-	=16-	=16-	=16-	=16-	=16-	=16-	=16-
*lig	*	*lig	*	*	*	*	*	*	*
!	!	!	!	!	!	!	!	!LO:TX:t=P:problem=kreska pseudotaktowa	!
1D	Ju-	1D	Ju-	2d\	-ri-	2A/	-ant	1f	-stum
!	!	!	!	!	!	!LO:TX:t=P:problem=kreska pseudotaktowa	!	!	!
.	.	.	.	1B-/	-a-	2B-/	.	.	.
!	!	!	!	!	!	!	!	!LO:TX:t=P:problem=kreska pseudotaktowa	!
1C	.	1C	.	.	.	4c\	ju-	1r	.
.	.	.	.	.	.	4d\	.	.	.
!	!	!	!	!LO:TX:t=P:problem=kreska pseudotaktowa	!	!	!	!	!
.	.	.	.	2A,/	-tur	4eny\	.	.	.
!	!	!	!	!	!	!LO:TX:t=P:problem=kreska pseudotaktowa	!	!	!
.	.	.	.	.	.	4c\	.	.	.
=17-	=17-	=17-	=17-	=17-	=17-	=17-	=17-	=17-	=17-
1BB-	.	1BB-	.	(>2B-/	Ter-	4d\	.	2r	.
.	.	.	.	.	.	4e\	.	.	.
!	!	!	!	!	!	!	!	!LO:TX:t=P:problem=kreska pseudotaktowa	!
.	.	.	.	2d\)	.	1f\	.	2b-X\	a-
*Xlig	*	*Xlig	*	*	*	*	*	*	*
!	!	!	!	!LO:TX:t=P:problem=kreska pseudotaktowa	!	!	!	!LO:TX:t=P:problem=kreska pseudotaktowa	!
1C	.	1C	.	1c,	-ra	.	.	2a\	-pe-
.	.	.	.	.	.	4e\	.	4g\	-ri-
!	!	!	!	!	!	!LO:TX:t=P:problem=kreska pseudotaktowa	!	!LO:TX:t=P:problem=kreska pseudotaktowa	!
.	.	.	.	.	.	4d\	.	4f\	.
!	!	!	!	!	!	!LO:LB:g=original	!	!	!
=18-	=18-	=18-	=18-	=18-	=18-	=18-	=18-	=18-	=18-
*lig	*	*lig	*	*	*	*	*	*	*
!	!	!	!	!LO:TX:t=P:problem=kreska pseudotaktowa	!	!	!	!	!
1C	-stum	1C	-stum	1r	.	2e,\	-stum	2g\	-a-
!	!	!	!	!	!	!LO:TX:t=P:problem=kreska pseudotaktowa	!	!LO:TX:t=P:problem=kreska pseudotaktowa	!
.	.	.	.	.	.	2g\	a-	2cc\	.
!LO:TX:t=P:problem=kreska pseudotaktowa	!	!LO:TX:t=P:problem=kreska pseudotaktowa	!	!	!	!	!	!	!
1D,	.	1D,	.	2r	.	4f\	-pe-	2dd,\	-tur
.	.	.	.	.	.	4e\	-ri-	.	.
!	!	!	!	!LO:TX:t=P:problem=kreska pseudotaktowa	!	!	!	!LO:TX:t=P:problem=kreska pseudotaktowa	!
.	.	.	.	2f\	a-	4d\	.	2a\	a-
!	!	!	!	!	!	!LO:TX:t=P:problem=kreska pseudotaktowa	!	!	!
.	.	.	.	.	.	4c\	.	.	.
*Xlig	*	*Xlig	*	*	*	*	*	*	*
!	!	!	!	!	!	!	!	!LO:LB:g=original	!
=19-	=19-	=19-	=19-	=19-	=19-	=19-	=19-	=19-	=19-
*lig	*	*lig	*	*	*	*	*	*	*
1BB-	a-	1BB-	a-	2d\	-pe-	4d\	-a-	2dd\	-pe-
.	.	.	.	.	.	4c\	.	.	.
!	!	!	!	!LO:TX:t=P:problem=kreska pseudotaktowa	!	!	!	!LO:TX:t=P:problem=kreska pseudotaktowa	!
.	.	.	.	2f\	-ri-	4B-/	.	2dd\	-ri-
!	!	!	!	!	!	!LO:TX:t=P:problem=kreska pseudotaktowa	!	!	!
.	.	.	.	.	.	4A/	.	.	.
!	!	!	!	!LO:LB:g=original	!	!	!	!	!
1C	.	1C	.	4eny\	-a-	2G/	.	2.cc\	-a-
.	.	.	.	4f\	.	.	.	.	.
.	.	.	.	4g\	.	2.c/	.	.	.
!	!	!	!	!LO:TX:t=P:problem=kreska pseudotaktowa	!	!	!	!LO:TX:t=P:problem=kreska pseudotaktowa	!
.	.	.	.	4e\	.	.	.	4b-\	.
=20-	=20-	=20-	=20-	=20-	=20-	=20-	=20-	=20-	=20-
!	!	!	!	!	!	!	!	!LO:TX:t=P:4\right:problem	!
1F	.	1F	.	2f\	.	.	.	4a\	.
!	!	!	!	!	!	!	!	!LO:TX:t=P:4\right:problem	!
.	.	.	.	.	.	4B-/	.	4g\	.
!	!	!	!	!LO:TX:t=P:problem=kreska pseudotaktowa	!	!	!	!	!
.	.	.	.	2c/	-tur	4A/	.	2.a\	.
!	!	!	!	!	!	!LO:TX:t=P:problem=kreska pseudotaktowa	!	!	!
.	.	.	.	.	.	4G/	.	.	.
*Xlig	*	*Xlig	*	*	*	*	*	*	*
*lig	*	*lig	*	*	*	*	*	*	*
1D	-pe-	1D	-pe-	2.d\	ter-	2F/	.	.	.
.	.	.	.	.	.	.	.	4g/	.
!	!	!	!	!	!	!LO:TX:t=P:problem=kreska pseudotaktowa	!	!LO:TX:t=P:problem=kreska pseudotaktowa	!
.	.	.	.	.	.	2A/	-tur	2f/	.
!	!	!	!	!LO:TX:t=P:problem=kreska pseudotaktowa	!	!	!	!	!
.	.	.	.	4c/	.	.	.	.	.
=21-	=21-	=21-	=21-	=21-	=21-	=21-	=21-	=21-	=21-
!LO:TX:a:t=P:problem=♭ above	!	!	!	!	!	!	!	!	!
1E-X	.	1E-X	.	4B-/	.	4G/	ter-	2g\	.
.	.	.	.	4A/	.	4A/	.	.	.
!	!	!	!	!LO:TX:t=P:problem=kreska pseudotaktowa	!	!	!	!	!
.	.	.	.	2G/	.	4B-/	.	2g\	-tur
!	!	!	!	!	!	!LO:TX:t=P:problem=kreska pseudotaktowa	!	!	!
.	.	.	.	.	.	4c/	.	.	.
*Xlig	*	*Xlig	*	*	*	*	*	*	*
*lig	*	*lig	*	*	*	*	*	*	*
1D	-ri-	1D	-ri-	2A/	.	4d\	.	4f/	ter-
.	.	.	.	.	.	4e\	.	4g/	.
!	!	!	!	!LO:TX:t=P:problem=kreska pseudotaktowa	!	!	!	!	!
.	.	.	.	2F/	.	1f\	.	4a\	.
!	!	!	!	!	!	!	!	!LO:TX:t=P:problem=kreska pseudotaktowa	!
.	.	.	.	.	.	.	.	4b-\	.
=22-	=22-	=22-	=22-	=22-	=22-	=22-	=22-	=22-	=22-
*custos:D	*	*	*	*	*	*	*	*	*
!	!	!	!	!	!	!	!	!LO:TX:t=P:problem=kreska pseudotaktowa	!
1C	.	1C	.	2G,/	-ra	.	.	1cc,	-ra
!	!	!	!	!LO:TX:t=P:problem=kreska pseudotaktowa	!	!LO:TX:t=P:problem=kreska pseudotaktowa	!	!	!
.	.	.	.	2c\	et	2e\	.	.	.
*Xlig	*	*Xlig	*	*	*	*	*	*	*
!LO:LB:g=original	!	!	!	!	!	!	!	!	!
!	!	!	!	!	!	!	!	!LO:TX:t=P:problem=kreska pseudotaktowa	!
1D	-a-	1D	-a-	2A/	ger-	2f\	.	1r	.
!	!	!	!	!LO:TX:t=P:problem=kreska pseudotaktowa	!	!	!	!	!
.	.	.	.	2B-/	.	4e\	.	.	.
.	.	.	.	.	.	4d\	.	.	.
=23-	=23-	=23-	=23-	=23-	=23-	=23-	=23-	=23-	=23-
!	!	!	!	!	!	!LO:TX:t=P:problem=kreska pseudotaktowa	!	!	!
0C	-tur	1C	.	2.c\	.	1e,	-ra	2r	.
!	!	!	!	!	!	!	!	!LO:TX:t=P:problem=kreska pseudotaktowa	!
.	.	.	.	.	.	.	.	2g\	et
!	!	!	!	!LO:TX:t=P:problem=kreska pseudotaktowa	!	!	!	!	!
.	.	.	.	4d\	.	.	.	.	.
.	.	1C	-tur	4e\	.	2r	.	2.cc\	ger-
.	.	.	.	4f\	.	.	.	.	.
!	!	!	!	!	!	!LO:TX:t=P:problem=kreska pseudotaktowa	!	!	!
.	.	.	.	4g\	.	2c/	et	.	.
!	!	!	!	!LO:TX:t=P:problem=kreska pseudotaktowa	!	!	!	!LO:TX:t=P:problem=kreska pseudotaktowa	!
.	.	.	.	4e\	.	.	.	4b-\	.
=24-	=24-	=24-	=24-	=24-	=24-	=24-	=24-	=24-	=24-
!LO:TX:t=P:problem=kreska pseudotaktowa	!	!LO:TX:t=P:problem=kreska pseudotaktowa	!	!	!	!	!	!	!
0F,	.	0F,	.	2f\	.	2.c/	ger-	4a\	.
.	.	.	.	.	.	.	.	4g\	.
!	!	!	!	!	!	!	!	!LO:TX:t=P:problem=kreska pseudotaktowa	!
.	.	.	.	(>4e\	-mi-	.	.	2a\	.
!	!	!	!	!	!	!LO:TX:t=P:problem=kreska pseudotaktowa	!	!	!
.	.	.	.	4d\)	.	4B-/	.	.	.
!	!	!	!	!LO:TX:t=P:problem=kreska pseudotaktowa	!	!	!	!	!
.	.	.	.	1c	-net	4A/	.	4f/	.
.	.	.	.	.	.	4G/	.	4g/	.
!	!	!	!	!	!	!LO:TX:t=P:problem=kreska pseudotaktowa	!	!	!
.	.	.	.	.	.	2F/	.	4a\	.
!	!	!	!	!	!	!	!	!LO:TX:t=P:problem=kreska pseudotaktowa	!
.	.	.	.	.	.	.	.	4b-\	.
=25-	=25-	=25-	=25-	=25-	=25-	=25-	=25-	=25-	=25-
*lig	*	*lig	*	*	*	*	*	*	*
1En	ter-	1En	ter-	2r	.	2G/	.	2.cc\	.
!	!	!	!	!LO:TX:t=P:problem=kreska pseudotaktowa	!	!LO:TX:t=P:problem=kreska pseudotaktowa	!	!	!
.	.	.	.	2c/	et	2G/	-mi-	.	.
!	!	!	!	!	!	!	!	!LO:TX:t=P:problem=kreska pseudotaktowa	!
.	.	.	.	.	.	.	.	4b-\	.
1F	.	1F	.	4c/	.	4F/	-net	4a\	.
.	.	.	.	4B-/	ger-	4G/	.	4g\	.
.	.	.	.	4A/	.	4A/	.	2.f/	.
!	!	!	!	!LO:TX:t=P:problem=kreska pseudotaktowa	!	!LO:TX:t=P:problem=kreska pseudotaktowa	!	!	!
.	.	.	.	4G/	.	4B-/	.	.	.
*Xlig	*	*Xlig	*	*	*	*	*	*	*
=26-	=26-	=26-	=26-	=26-	=26-	=26-	=26-	=26-	=26-
*lig	*	*lig	*	*	*	*	*	*	*
1F	-ra	1F	-ra	2.A/	.	4c\	.	.	.
.	.	.	.	.	.	4B-\	.	4g\	.
.	.	.	.	.	.	4c\	.	4a\	.
!	!	!	!	!LO:TX:t=P:problem=kreska pseudotaktowa	!	!LO:TX:t=P:problem=kreska pseudotaktowa	!	!LO:TX:t=P:problem=kreska pseudotaktowa	!
.	.	.	.	4A/	-mi-	4d\	.	4b-\	.
!	!	!	!	!	!	!LO:LB:g=original	!	!	!
1E	.	1E	.	2G,/	-net	4e\	.	2.cc\	.
.	.	.	.	.	.	4f\	.	.	.
!	!	!	!	!LO:TX:t=P:problem=kreska pseudotaktowa	!	!	!	!	!
.	.	.	.	2c/	.	4g\	.	.	.
!	!	!	!	!	!	!LO:TX:t=P:problem=kreska pseudotaktowa	!	!LO:TX:t=P:problem=kreska pseudotaktowa	!
.	.	.	.	.	.	4e\	.	4cc\	-mi-
=27-	=27-	=27-	=27-	=27-	=27-	=27-	=27-	=27-	=27-
!LO:TX:t=P:problem=kreska pseudotaktowa	!	!LO:TX:t=P:problem=kreska pseudotaktowa	!	!	!	!	!	!LO:TX:t=P:problem=kreska pseudotaktowa	!
1D	.	1D	.	2B-/	et	2f\	.	1dd,	-net
!	!	!	!	!LO:TX:t=P:problem=kreska pseudotaktowa	!	!LO:TX:t=P:problem=kreska pseudotaktowa	!	!	!
.	.	.	.	2A/	ger-	2d\	et	.	.
*Xlig	*	*Xlig	*	*	*	*	*	*	*
!LO:TX:t=P:problem=kreska pseudotaktowa	!	!LO:TX:t=P:problem=kreska pseudotaktowa	!	!	!	!	!	!LO:LB:g=original	!
1F	et	1F	et	2.A/	.	4c/	ger-	2r	.
.	.	.	.	.	.	4B-/	.	.	.
.	.	.	.	.	.	4A/	.	1cc\	et
!	!	!	!	!LO:TX:t=P:problem=kreska pseudotaktowa	!	!LO:TX:t=P:problem=kreska pseudotaktowa	!	!	!
.	.	.	.	4B-/	.	4G/	.	.	.
=28-	=28-	=28-	=28-	=28-	=28-	=28-	=28-	=28-	=28-
*lig	*	*lig	*	*	*	*	*	*	*
1F	ger-	1F	ger-	4c/	.	2.A/	.	.	.
.	.	.	.	4B-/	.	.	.	.	.
!	!	!	!	!	!	!	!	!LO:TX:t=P:problem=kreska pseudotaktowa	!
.	.	.	.	4c/	.	.	.	2a\	.
!	!	!	!	!	!	!LO:TX:t=P:problem=kreska pseudotaktowa	!	!	!
.	.	.	.	4d/	.	4B-/	.	.	.
1E	.	1E	.	4e\	.	2c\	.	2g\	ger-
.	.	.	.	4f\	.	.	.	.	.
!	!	!	!	!	!	!LO:TX:t=P:problem=kreska pseudotaktowa	!	!LO:TX:t=P:problem=kreska pseudotaktowa	!
.	.	.	.	4g\	.	2c\	-mi-	2cc\	.
!	!	!	!	!LO:TX:t=P:problem=kreska pseudotaktowa	!	!	!	!	!
.	.	.	.	4e\	.	.	.	.	.
!	!	!	!	!LO:LB:g=original	!	!	!	!	!
=29-	=29-	=29-	=29-	=29-	=29-	=29-	=29-	=29-	=29-
1D	.	1D	.	2.f\	.	2d,\	-net	4b-\	.
.	.	.	.	.	.	.	.	4a\	.
!	!	!	!	!	!	!LO:TX:t=P:problem=kreska pseudotaktowa	!	!	!
.	.	.	.	.	.	2A/	et	2.dd\	.
!	!	!	!	!LO:TX:t=P:problem=kreska pseudotaktowa	!	!	!	!	!
.	.	.	.	4e\	-mi-	.	.	.	.
*Xlig	*	*Xlig	*	*	*	*	*	*	*
*lig	*	*lig	*	*	*	*	*	*	*
1G	.	1G	.	2d\	-net	(<4B-/	ger-	.	.
.	.	.	.	.	.	4c/)	.	4cc\	.
!	!	!	!	!	!	!	!	!LO:TX:t=P:problem=kreska pseudotaktowa	!
.	.	.	.	2.d\	.	(>4d\	-mi-	4b-\	.
!	!	!	!	!	!	!	!	!LO:TX:t=P:problem=kreska pseudotaktowa	!
.	.	.	.	.	.	4e\)	.	4g\	.
=30-	=30-	=30-	=30-	=30-	=30-	=30-	=30-	=30-	=30-
!	!	!	!	!	!	!LO:TX:t=P:problem=kreska pseudotaktowa	!	!	!
1F	.	1F	.	.	.	1f,	-net	2a\	.
.	.	.	.	4c/	et	.	.	.	.
!	!	!	!	!	!	!	!	!LO:TX:t=P:problem=kreska pseudotaktowa	!
.	.	.	.	4A/	.	.	.	2a\	-mi-
!	!	!	!	!LO:TX:t=P:problem=kreska pseudotaktowa	!	!	!	!	!
.	.	.	.	4B-/	.	.	.	.	.
*Xlig	*	*Xlig	*	*	*	*	*	*	*
!LO:TX:t=P:problem=kreska pseudotaktowa	!	!LO:TX:t=P:problem=kreska pseudotaktowa	!	!	!	!LO:TX:t=P:problem=kreska pseudotaktowa	!	!LO:TX:t=P:problem=kreska pseudotaktowa	!
1E	-mi-	1E	-mi-	2c/	ger-	1r	.	1g	-net
!	!	!	!	!LO:TX:t=P:problem=kreska pseudotaktowa	!	!	!	!	!
.	.	.	.	2B-/	.	.	.	.	.
=31-	=31-	=31-	=31-	=31-	=31-	=31-	=31-	=31-	=31-
!	!	!	!	!	!	!	!	!LO:TX:t=P:problem=kreska pseudotaktowa	!
1F	-net	1F	-net	4A/	.	2.f\	et	1a	et
.	.	.	.	4B-/	.	.	.	.	.
.	.	.	.	4c/	.	.	.	.	.
!	!	!	!	!LO:TX:t=P:problem=kreska pseudotaktowa	!	!LO:TX:t=P:problem=kreska pseudotaktowa	!	!	!
.	.	.	.	4A/	.	4e\	.	.	.
*lig	*	*lig	*	*	*	*	*	*	*
1G	.	1G	.	2B-/	-mi-	2d\	ger-	2.g/	ger-
!	!	!	!	!	!	!LO:TX:t=P:problem=kreska pseudotaktowa	!	!	!
.	.	.	.	2B-/	.	2e\	.	.	.
!	!	!	!	!	!	!	!	!LO:TX:t=P:problem=kreska pseudotaktowa	!
.	.	.	.	.	.	.	.	4g/	.
=32-	=32-	=32-	=32-	=32-	=32-	=32-	=32-	=32-	=32-
1F	.	1F	.	(>1A	-net	2f\	.	2c/	-mi-
!	!	!	!	!	!	!	!	!LO:TX:t=P:problem=kreska pseudotaktowa	!
.	.	.	.	.	.	2.d\	.	2d/	-net
!	!	!	!	!LO:TX:t=P:problem=kreska pseudotaktowa	!	!	!	!	!
1E	.	1E	.	1G)	.	.	.	4e/	.
.	.	.	.	.	.	4c/	.	4f/	.
.	.	.	.	.	.	1c\	.	4g/	.
.	.	.	.	.	.	.	.	4e/	.
=33-	=33-	=33-	=33-	=33-	=33-	=33-	=33-	=33-	=33-
*	*	*custos:C	*	*	*	*	*	*	*
!	!	!	!	!LO:TX:t=P:problem=kreska pseudotaktowa	!	!	!	!LO:TX:t=P:problem=kreska pseudotaktowa	!
1D	.	1D	.	0r	.	.	.	1f	.
!	!	!	!	!	!	!LO:TX:t=P:problem=kreska pseudotaktowa	!	!	!
.	.	.	.	.	.	2B-/	.	.	.
*	*	*Xlig	*	*	*	*	*	*	*
!	!	!LO:LB:g=original	!	!	!	!	!	!	!
!LO:TX:t=P:problem=kreska pseudotaktowa	!	!LO:TX:t=P:problem=kreska pseudotaktowa	!	!	!	!	!	!	!
1C	.	1C,	.	.	.	4c\	.	2.e/	ger-
.	.	.	.	.	.	4d\	.	.	.
.	.	.	.	.	.	4e\	-mi-	.	.
!	!	!	!	!	!	!	!	!LO:TX:t=P:problem=kreska pseudotaktowa	!
.	.	.	.	.	.	4c\	-net	4f/	.
*Xlig	*	*	*	*	*	*	*	*	*
!LO:LB:g=original	!	!	!	!	!	!	!	!	!
=34-	=34-	=34-	=34-	=34-	=34-	=34-	=34-	=34-	=34-
*lig	*	*	*	*	*	*	*	*	*
!	!	!	!	!	!	!LO:TX:t=P:problem=kreska pseudotaktowa	!	!	!
1BB-	Sal-	1BB-	Sal-	2r	.	0d	.	4g/	.
.	.	.	.	.	.	.	.	4f/	.
.	.	.	.	2.F/	Sal-	.	.	4d/	.
!	!	!	!	!	!	!	!	!LO:TX:t=P:problem=kreska pseudotaktowa	!
.	.	.	.	.	.	.	.	4e/	.
1D	.	1D	.	.	.	.	.	4f/	.
.	.	.	.	4G/	.	.	.	4e/	.
.	.	.	.	2.A/	-va-	.	.	4f/	.
!	!	!	!	!	!	!	!	!LO:TX:t=P:problem=kreska pseudotaktowa	!
.	.	.	.	.	.	.	.	4g/	.
*Xlig	*	*	*	*	*	*	*	*	*
=35-	=35-	=35-	=35-	=35-	=35-	=35-	=35-	=35-	=35-
*lig	*	*lig	*	*	*	*	*	*	*
!	!	!	!	!	!	!LO:TX:t=P:problem=kreska pseudotaktowa	!	!LO:TX:t=P:problem=kreska pseudotaktowa	!
1F	.	1F	.	.	.	1r	.	1a	.
.	.	.	.	4B-/	.	.	.	.	.
!	!	!	!	!LO:TX:t=P:problem=kreska pseudotaktowa	!	!	!	!	!
.	.	.	.	[<2c/	.	.	.	.	.
1G	.	1G	.	2c/]	.	2.d\	Sal-	4g\	.
.	.	.	.	.	.	.	.	4a\	.
!	!	!	!	!LO:TX:t=P:problem=kreska pseudotaktowa	!	!	!	!	!
.	.	.	.	2B-/	.	.	.	4b-\	.
!	!	!	!	!	!	!LO:TX:t=P:problem=kreska pseudotaktowa	!	!LO:TX:t=P:problem=kreska pseudotaktowa	!
.	.	.	.	.	.	4e\	.	4cc\	.
*	*	*Xlig	*	*	*	*	*	*	*
!	!	!	!	!	!	!LO:LB:g=original	!	!	!
=36-	=36-	=36-	=36-	=36-	=36-	=36-	=36-	=36-	=36-
1F	.	1F	-va-	4A/	-to-	2.f\	-va-	2dd\	.
.	.	.	.	4G/	.	.	.	.	.
.	.	.	.	4A/	.	.	.	4cc\	.
!	!	!	!	!LO:TX:t=P:problem=kreska pseudotaktowa	!	!LO:TX:t=P:problem=kreska pseudotaktowa	!	!LO:TX:t=P:problem=kreska pseudotaktowa	!
.	.	.	.	4B-/	.	4g\	.	4b-\	.
*Xlig	*	*	*	*	*	*	*	*	*
!	!	!	!	!	!	!	!	!LO:LB:g=original	!
*lig	*	*lig	*	*	*	*	*	*	*
1F	-va-	1F	-to-	2c/	.	4a\	-to-	2a\	.
.	.	.	.	.	.	4g\	.	.	.
!	!	!	!	!LO:TX:t=P:problem=kreska pseudotaktowa	!	!	!	!	!
.	.	.	.	2A,/	-rem	4f\	.	1cc\	.
!	!	!	!	!	!	!LO:TX:t=P:problem=kreska pseudotaktowa	!	!	!
.	.	.	.	.	.	4e\	.	.	.
=37-	=37-	=37-	=37-	=37-	=37-	=37-	=37-	=37-	=37-
1G	.	1G	.	4B-/	Sal-	2d\	.	.	.
.	.	.	.	4A/	.	.	.	.	.
!	!	!	!	!	!	!LO:TX:t=P:problem=kreska pseudotaktowa	!	!LO:TX:t=P:problem=kreska pseudotaktowa	!
.	.	.	.	4B-/	.	2e\	.	2b-X\	.
!	!	!	!	!LO:TX:t=P:problem=kreska pseudotaktowa	!	!	!	!	!
.	.	.	.	4c/	.	.	.	.	.
!	!	!	!	!	!	!	!	!LO:TX:t=P:problem=kreska pseudotaktowa	!
1F	.	1F	.	4d/	.	2f\	-rem	1a	-mi-
.	.	.	.	4c/	.	.	.	.	.
.	.	.	.	4A/	.	2.c/	.	.	.
!	!	!	!	!LO:TX:t=P:problem=kreska pseudotaktowa	!	!	!	!	!
.	.	.	.	4B-/	.	.	.	.	.
*Xlig	*	*	*	*	*	*	*	*	*
=38-	=38-	=38-	=38-	=38-	=38-	=38-	=38-	=38-	=38-
*lig	*	*	*	*	*	*	*	*	*
!	!	!	!	!	!	!	!	!LO:TX:t=P:problem=kreska pseudotaktowa	!
1E	-to-	1E	.	2c/	-va-	.	.	1g	-net
.	.	.	.	.	.	4d\	Sal-	.	.
!	!	!	!	!LO:TX:t=P:problem=kreska pseudotaktowa	!	!LO:TX:t=P:problem=kreska pseudotaktowa	!	!	!
.	.	.	.	2G/	.	2e\	-va-	.	.
1D	.	1D	.	4A/	-to-	2f\	-to-	2r	.
.	.	.	.	4G/	.	.	.	.	.
!	!	!	!	!	!	!LO:TX:t=P:problem=kreska pseudotaktowa	!	!	!
.	.	.	.	4F/	.	2.a\	.	2.f/	Sal-
!	!	!	!	!LO:TX:t=P:problem=kreska pseudotaktowa	!	!	!	!	!
.	.	.	.	4G/	.	.	.	.	.
*Xlig	*	*Xlig	*	*	*	*	*	*	*
!	!	!	!	!LO:LB:g=original	!	!	!	!	!
=39-	=39-	=39-	=39-	=39-	=39-	=39-	=39-	=39-	=39-
*lig	*	*lig	*	*	*	*	*	*	*
1D	-rem	1D	-rem	4A/	.	.	.	.	.
.	.	.	.	4B-/	.	4g\	.	4g\	.
!	!	!	!	!	!	!LO:TX:t=P:problem=kreska pseudotaktowa	!	!LO:TX:t=P:problem=kreska pseudotaktowa	!
.	.	.	.	2.c/	.	2f\	.	(>2.a\	.
1F	.	1F	.	.	.	2.c/	.	.	.
.	.	.	.	4B-/	.	.	.	4b-\)	-va-
!	!	!	!	!	!	!	!	!LO:TX:t=P:problem=kreska pseudotaktowa	!
.	.	.	.	2A/	-rem,	.	.	[<2cc\	-to-
!	!	!	!	!	!	!LO:TX:t=P:problem=kreska pseudotaktowa	!	!	!
.	.	.	.	.	.	4d\	.	.	.
*Xlig	*	*Xlig	*	*	*	*	*	*	*
=40-	=40-	=40-	=40-	=40-	=40-	=40-	=40-	=40-	=40-
*lig	*	*lig	*	*	*	*	*	*	*
!	!	!	!	!LO:TX:t=P:problem=kreska pseudotaktowa	!	!	!	!	!
1C	.	1C	.	1G	.	4e\	.	2cc\]	.
.	.	.	.	.	.	4f\	.	.	.
.	.	.	.	.	.	4g\	.	2cc,\	-rem
!	!	!	!	!	!	!LO:TX:t=P:problem=kreska pseudotaktowa	!	!	!
.	.	.	.	.	.	4e\	.	.	.
!	!	!	!	!LO:TX:t=P:problem=kreska pseudotaktowa	!	!LO:TX:t=P:problem=kreska pseudotaktowa	!	!	!
1D	.	1D	.	1r	.	1f	-rem	2a\	.
!	!	!	!	!	!	!	!	!LO:TX:t=P:problem=kreska pseudotaktowa	!
.	.	.	.	.	.	.	.	2b-\	Sal-
=41-	=41-	=41-	=41-	=41-	=41-	=41-	=41-	=41-	=41-
!	!	!	!	!	!	!LO:TX:t=P:problem=kreska pseudotaktowa	!	!	!
1C	.	1C	.	2r	.	1e,	.	2cc\	-va-
!	!	!	!	!LO:TX:t=P:problem=kreska pseudotaktowa	!	!	!	!LO:TX:t=P:problem=kreska pseudotaktowa	!
.	.	.	.	2c\	al-	.	.	2g/	-to-
!LO:TX:t=P:problem=kreska pseudotaktowa	!	!LO:TX:t=P:problem=kreska pseudotaktowa	!	!	!	!	!	!LO:TX:t=P:problem=kreska pseudotaktowa	!
1BB-	.	1BB-	.	4d\	-le-	2r	.	1b-	.
.	.	.	.	4c\	.	.	.	.	.
!	!	!	!	!	!	!LO:TX:t=P:problem=kreska pseudotaktowa	!	!	!
.	.	.	.	4d\	.	2f\	al-	.	.
!	!	!	!	!LO:TX:t=P:problem=kreska pseudotaktowa	!	!	!	!	!
.	.	.	.	4e\	.	.	.	.	.
*Xlig	*	*Xlig	*	*	*	*	*	*	*
=42-	=42-	=42-	=42-	=42-	=42-	=42-	=42-	=42-	=42-
1D	al-	1D	al-	2f\	.	4d\	-le-	(>4a\	.
.	.	.	.	.	.	4e\	.	4g\	.
!	!	!	!	!LO:TX:t=P:problem=kreska pseudotaktowa	!	!	!	!	!
.	.	.	.	2d\	-lu-	4f\	.	4a\	.
!	!	!	!	!	!	!LO:TX:t=P:problem=kreska pseudotaktowa	!	!LO:TX:t=P:problem=kreska pseudotaktowa	!
.	.	.	.	.	.	4d\	.	4b-\)	.
!	!	!	!	!	!	!	!	!LO:TX:t=P:problem=kreska pseudotaktowa	!
1C	-le-	1C	-le-	2e-X,\	-ia	2g\	.	1cc	-rem
!	!	!	!	!LO:TX:t=P:problem=kreska pseudotaktowa	!	!LO:TX:t=P:problem=kreska pseudotaktowa	!	!	!
.	.	.	.	2e-\	al-	2g\	-lu-	.	.
=43-	=43-	=43-	=43-	=43-	=43-	=43-	=43-	=43-	=43-
*lig	*	*lig	*	*	*	*	*	*	*
!	!	!	!	!	!	!	!	!LO:TX:a:t=I	!
!	!	!	!	!	!	!	!	!LO:TX:t=P:problem=kreska pseudotaktowa	!
1D	-luia	1D	-lu-	4d\	-le-	4f\	-ia	1r	.
.	.	.	.	4c\	.	4e\	.	.	.
.	.	.	.	4B-/	.	4d\	.	.	.
!	!	!	!	!LO:TX:t=P:problem=kreska pseudotaktowa	!	!LO:TX:t=P:problem=kreska pseudotaktowa	!	!	!
.	.	.	.	4A/	.	4c\	.	.	.
!LO:TX:a:t=P:problem=♭ above	!	!	!	!	!	!	!	!	!
1E-X	.	1E-X	.	4G/	.	2B-/	.	2r	.
.	.	.	.	4A/	.	.	.	.	.
!	!	!	!	!	!	!LO:TX:t=P:problem=kreska pseudotaktowa	!	!LO:TX:t=P:problem=kreska pseudotaktowa	!
.	.	.	.	4B-/	.	2G/	al-	2g/	al-
!	!	!	!	!LO:TX:t=P:problem=kreska pseudotaktowa	!	!	!	!	!
.	.	.	.	4c/	.	.	.	.	.
*	*	*Xlig	*	*	*	*	*	*	*
!	!	!	!	!	!	!LO:LB:g=original	!	!	!
=44-	=44-	=44-	=44-	=44-	=44-	=44-	=44-	=44-	=44-
!LO:TX:t=P:problem=kreska pseudotaktowa	!	!LO:TX:t=P:problem=kreska pseudotaktowa	!	!	!	!	!	!	!
1D	.	1D	-ia	2d\	-[lu]-	2A/	-le-	(<4f/	-le-
.	.	.	.	.	.	.	.	4g/	.
!	!	!	!	!LO:TX:t=P:problem=kreska pseudotaktowa	!	!LO:TX:t=P:problem=kreska pseudotaktowa	!	!	!
.	.	.	.	2c\	.	2F/	-lu-	4a/	.
!	!	!	!	!	!	!	!	!LO:TX:t=P:problem=kreska pseudotaktowa	!
.	.	.	.	.	.	.	.	4b-\)	.
*Xlig	*	*	*	*	*	*	*	*	*
*lig	*	*lig	*	*	*	*	*	*	*
1C	al-	1C	al-	2e-X,\	-ia	2G,/	-ia	2cc\	.
*	*	*	*	*	*ij	*	*	*	*
!	!	!	!	!LO:TX:t=P:problem=kreska pseudotaktowa	!	!	!	!LO:TX:t=P:problem=kreska pseudotaktowa	!
.	.	.	.	2c\	al-	1A/	al-	2cc\	-lu-
=45-	=45-	=45-	=45-	=45-	=45-	=45-	=45-	=45-	=45-
1D	.	1D	.	2f\	-le-	.	.	2a,\	-ia
!	!	!	!	!	!	!LO:TX:t=P:problem=kreska pseudotaktowa	!	!LO:TX:t=P:problem=kreska pseudotaktowa	!
.	.	.	.	2d\	-lu-	2B-/	.	2f/	.
!	!	!	!	!LO:TX:t=P:problem=kreska pseudotaktowa	!	!	!	!	!
1F	.	1F	.	1c,	-ia	4A/	-le-	4a\	al-
*	*	*	*	*	*Xij	*	*	*	*
.	.	.	.	.	.	4B-/	.	4g\	.
.	.	.	.	.	.	4c/	.	4a\	.
!	!	!	!	!	!	!LO:TX:t=P:problem=kreska pseudotaktowa	!	!LO:TX:t=P:problem=kreska pseudotaktowa	!
.	.	.	.	.	.	4d/	.	4b-\	.
*Xlig	*	*Xlig	*	*	*	*	*	*	*
!LO:LB:g=original	!	!	!	!	!	!	!	!	!
=46-	=46-	=46-	=46-	=46-	=46-	=46-	=46-	=46-	=46-
*lig	*	*lig	*	*	*	*	*	*	*
1C	-le-	1C	-le-	2r	.	4e\	.	2.cc\	.
.	.	.	.	.	.	4f\	.	.	.
!	!	!	!	!LO:TX:t=P:problem=kreska pseudotaktowa	!	!	!	!	!
.	.	.	.	2c/	al-	4g\	.	.	.
!	!	!	!	!	!	!LO:TX:t=P:problem=kreska pseudotaktowa	!	!LO:TX:t=P:problem=kreska pseudotaktowa	!
.	.	.	.	.	.	4e\	.	4b-\	.
!	!	!	!	!	!	!	!	!LO:LB:g=original	!
1D	.	1D	.	4F/	-le-	2f\	.	4a\	.
.	.	.	.	4G/	.	.	.	4g\	.
!	!	!	!	!	!	!LO:TX:t=P:problem=kreska pseudotaktowa	!	!LO:TX:t=P:problem=kreska pseudotaktowa	!
.	.	.	.	4A/	.	2d\	-lu-	[<2f/	.
!	!	!	!	!LO:TX:t=P:problem=kreska pseudotaktowa	!	!	!	!	!
.	.	.	.	4B-/	.	.	.	.	.
*Xlig	*	*Xlig	*	*	*	*	*	*	*
=47-	=47-	=47-	=47-	=47-	=47-	=47-	=47-	=47-	=47-
0C	-lu-	0C	.	2c/	.	2.g\	-ia	2f/]	.
.	.	.	.	2c/	-[lu]-	.	.	4e/	.
!	!	!	!	!	!	!LO:TX:t=P:problem=kreska pseudotaktowa	!	!LO:TX:t=P:problem=kreska pseudotaktowa	!
.	.	.	.	.	.	4f\	.	4d/	.
.	.	.	.	2c/	-ia	4e\	al-	2e/	-le-
.	.	.	.	.	.	4d\	.	.	.
!	!	!	!	!	!	!	!	!LO:TX:t=P:problem=kreska pseudotaktowa	!
.	.	.	.	2.G/	al-	1c\	.	2e/	-lu-
=48-	=48-	=48-	=48-	=48-	=48-	=48-	=48-	=48-	=48-
0GG	-ia.	0GG	lu-	.	.	.	.	2d,/	-ia
.	.	.	.	4A/	.	.	.	.	.
!	!	!	!	!LO:TX:b:t=P:problem=♮ below	!	!	!	!	!
.	.	.	.	4B/	-le-	4Bn/	-le-	2.g/	al-
.	.	.	.	4c/	.	4A/	.	.	.
.	.	.	.	2d\	.	1Bn	-lu-	.	.
.	.	.	.	.	.	.	.	4f/	-le-
*	*	*	*	*custos:G	*	*	*	*	*
!	!	!	!	!LO:TX:t=P:problem=kreska pseudotaktowa	!	!	!	!	!
.	.	.	.	2G/	-lu-	.	.	4e/	-lu-
.	.	.	.	.	.	.	.	4d/	.
!	!	!	!	!LO:LB:g=original	!	!	!	!	!
=49-	=49-	=49-	=49-	=49-	=49-	=49-	=49-	=49-	=49-
0C;>	.	0C;>	-ia.	0G;>	-ia.	0c;>	-ia	0e;>	-ia.
.	.	.	.	.	.	.	.	.	.
!	!	!LO:LB:g=original	!	!	!	!	!	!	!
=50||	=50||	=50||	=50||	=50||	=50||	=50||	=50||	=50||	=50||
*M2/2	*	*M2/2	*	*M2/2	*	*M2/2	*	*M2/2	*
*met(c|)	*	*met(c|)	*	*met(c|)	*	*met(c|)	*	*met(c|)	*
*lig	*	*lig	*	*	*	*	*	*	*
1C	Be-	1C	Be-	2.c/	Be-	0r	.	0r	.
!	!	!	!	!LO:TX:t=P:problem=kreska pseudotaktowa	!	!	!	!	!
.	.	.	.	4B-/	.	.	.	.	.
!	!	!	!	!	!	!LO:TX:t=P:problem=kreska pseudotaktowa	!	!	!
1D	-ne-	1D	.	2A/	.	.	.	.	.
!	!	!	!	!LO:TX:t=P:problem=kreska pseudotaktowa	!	!	!	!	!
.	.	.	.	2F/	-ne-	.	.	.	.
*Xlig	*	*Xlig	*	*	*	*	*	*	*
=51-	=51-	=51-	=51-	=51-	=51-	=51-	=51-	=51-	=51-
*lig	*	*lig	*	*	*	*	*	*	*
!	!	!	!	!	!	!	!	!LO:TX:t=P:problem=kreska pseudotaktowa	!
1C	-di-	1C	-ne-	2G/	-di-	2.c/	Be-	1r	.
.	.	.	.	2.A/	-xi-	.	.	.	.
!	!	!	!	!	!	!LO:TX:t=P:problem=kreska pseudotaktowa	!	!	!
.	.	.	.	.	.	4B-/	.	.	.
1F	-xi-	1F	.	.	.	2A/	.	2.cc\	Be-
.	.	.	.	4B-/	.	.	.	.	.
!	!	!	!	!LO:TX:t=P:problem=kreska pseudotaktowa	!	!LO:TX:t=P:problem=kreska pseudotaktowa	!	!	!
.	.	.	.	2c\	-sti	2F/	-ne-	.	.
!	!	!	!	!	!	!	!	!LO:TX:t=P:problem=kreska pseudotaktowa	!
.	.	.	.	.	.	.	.	4b-\	.
*Xlig	*	*Xlig	*	*	*	*	*	*	*
=52-	=52-	=52-	=52-	=52-	=52-	=52-	=52-	=52-	=52-
1F	-sti	1F	-di-	4d\	.	2.F/	-di-	2a\	-ne-
.	.	.	.	4c\	.	.	.	.	.
!	!	!	!	!	!	!	!	!LO:TX:t=P:problem=kreska pseudotaktowa	!
.	.	.	.	4A/	Do-	.	.	2f/	-di-
!	!	!	!	!	!	!LO:TX:t=P:problem=kreska pseudotaktowa	!	!	!
.	.	.	.	4B-/	.	4G/	.	.	.
1F	.	1F	-xi-	2c\	.	4A/	-xi-	2.f/	-xi-
.	.	.	.	.	.	4G/	.	.	.
!	!	!	!	!LO:TX:t=P:problem=kreska pseudotaktowa	!	!	!	!	!
.	.	.	.	2d\	.	4A/	.	.	.
!	!	!	!	!	!	!LO:TX:t=P:problem=kreska pseudotaktowa	!	!LO:TX:t=P:problem=kreska pseudotaktowa	!
.	.	.	.	.	.	4B-/	.	4g\	.
=53-	=53-	=53-	=53-	=53-	=53-	=53-	=53-	=53-	=53-
!LO:TX:t=P:problem=kreska pseudotaktowa	!	!LO:TX:t=P:problem=kreska pseudotaktowa	!	!	!	!	!	!	!
1F	.	1F,	-sti	2.c/	.	4c\	.	4a\	.
.	.	.	.	.	.	4B-\	.	4g\	.
.	.	.	.	.	.	4c\	.	4a\	.
!	!	!	!	!LO:TX:t=P:problem=kreska pseudotaktowa	!	!LO:TX:t=P:problem=kreska pseudotaktowa	!	!LO:TX:t=P:problem=kreska pseudotaktowa	!
.	.	.	.	4B-/	.	4d\	.	4b-\	.
1F	Do-	1F	Do-	2.A/	.	2c\	.	2cc\	.
!	!	!	!	!	!	!	!	!LO:TX:t=P:problem=kreska pseudotaktowa	!
.	.	.	.	.	.	2d\	-sti	2a\	-sti
!	!	!	!	!LO:TX:t=P:problem=kreska pseudotaktowa	!	!	!	!	!
.	.	.	.	4A/	-mi-	.	.	.	.
=54-	=54-	=54-	=54-	=54-	=54-	=54-	=54-	=54-	=54-
*2\right	*	*	*	*	*	*	*	*	*
!	!	!	!	!LO:TX:t=P:problem=kreska pseudotaktowa	!	!	!	!	!
2F\	-mi-	2F\	-mi-	1A,	-ne	2c,\	Do-	2.f/	Do-
!LO:TX:t=P:problem=kreska pseudotaktowa	!	!	!	!	!	!LO:TX:t=P:problem=kreska pseudotaktowa	!	!	!
2F\	-ne	2F\	-ne	.	.	2f\	.	.	.
!	!	!	!	!	!	!	!	!LO:TX:t=P:problem=kreska pseudotaktowa	!
.	.	.	.	.	.	.	.	4g\	-mi-
!	!	!	!	!	!	!LO:LB:g=original	!	!	!
*lig	*	*lig	*	*	*	*	*	*	*
1F	ter-	1F	ter-	2r	.	4d\	.	2a,\	-ne
.	.	.	.	.	.	4c\	.	.	.
!	!	!	!	!LO:TX:t=P:problem=kreska pseudotaktowa	!	!	!	!LO:TX:t=P:problem=kreska pseudotaktowa	!
.	.	.	.	2F/	ter-	4A/	.	2a\	.
.	.	.	.	.	.	4B-/	.	.	.
=55-	=55-	=55-	=55-	=55-	=55-	=55-	=55-	=55-	=55-
1E	.	1E	.	2G/	.	2.c/	.	2.g\	Do-
!	!	!	!	!LO:TX:t=P:problem=kreska pseudotaktowa	!	!	!	!	!
.	.	.	.	2G/	-ram	.	.	.	.
!	!	!	!	!	!	!LO:TX:t=P:problem=kreska pseudotaktowa	!	!LO:TX:t=P:problem=kreska pseudotaktowa	!
.	.	.	.	.	.	4B-/	.	4g\	-mi-
*Xlig	*	*Xlig	*	*	*	*	*	*	*
1F	-ram	1F	-ram	2c\	tu-	2A/	.	4a\	-ne
.	.	.	.	.	.	.	.	4g\	.
!	!	!	!	!	!	!LO:TX:t=P:problem=kreska pseudotaktowa	!	!	!
.	.	.	.	2.d\	.	2A/	-mi-	4f/	.
.	.	.	.	.	.	.	.	4e/	.
=56-	=56-	=56-	=56-	=56-	=56-	=56-	=56-	=56-	=56-
!LO:TX:t=P:problem=kreska pseudotaktowa	!	!LO:TX:t=P:problem=kreska pseudotaktowa	!	!	!	!	!	!	!
0G	.	0G,	.	.	.	4B-/	-ne	2d/	.
.	.	.	.	4c/	.	4c/	.	.	.
.	.	.	.	4B-/	.	4d\	.	1g\	ter-
!	!	!	!	!LO:TX:t=P:problem=kreska pseudotaktowa	!	!LO:TX:t=P:problem=kreska pseudotaktowa	!	!	!
.	.	.	.	4A/	.	4e\	.	.	.
!	!	!	!	!LO:TX:t=P:problem=kreska pseudotaktowa	!	!	!	!	!
.	.	.	.	1B-	-am	2d\	ter-	.	.
!	!	!	!	!	!	!LO:TX:t=P:problem=kreska pseudotaktowa	!	!LO:TX:t=P:problem=kreska pseudotaktowa	!
.	.	.	.	.	.	2e\	-ram	2g\	-ram
!	!	!	!	!	!	!	!	!LO:LB:g=original	!
=57-	=57-	=57-	=57-	=57-	=57-	=57-	=57-	=57-	=57-
*lig	*	*lig	*	*	*	*	*	*	*
1F	tu-	1F	tu-	1c,	.	2.f\	tu-	4a\	tu-
.	.	.	.	.	.	.	.	4b-\	.
.	.	.	.	.	.	.	.	4cc\	.
!	!	!	!	!	!	!LO:TX:t=P:problem=kreska pseudotaktowa	!	!	!
.	.	.	.	.	.	4e\	.	4a\	.
!	!	!	!	!	!	!	!	!LO:TX:t=P:problem=kreska pseudotaktowa	!
1G	-am	1G	.	2.B-/	a-	2d,\	-am	1b-X	.
!	!	!	!	!	!	!LO:TX:t=P:problem=kreska pseudotaktowa	!	!	!
.	.	.	.	.	.	2e\	a-	.	.
!	!	!	!	!LO:TX:t=P:problem=kreska pseudotaktowa	!	!	!	!	!
.	.	.	.	4c/	.	.	.	.	.
*Xlig	*	*Xlig	*	*	*	*	*	*	*
=58-	=58-	=58-	=58-	=58-	=58-	=58-	=58-	=58-	=58-
!	!	!LO:TX:t=P:problem=kreska pseudotaktowa	!	!	!	!	!	!LO:TX:t=P:problem=kreska pseudotaktowa	!
1F	.	1F,	-am	4d\	-ver-	2f\	-ver-	1a	-am
.	.	.	.	4c\	.	.	.	.	.
!	!	!	!	!	!	!LO:TX:t=P:problem=kreska pseudotaktowa	!	!	!
.	.	.	.	4B-\	.	2.f\	-ti-	.	.
!	!	!	!	!LO:TX:t=P:problem=kreska pseudotaktowa	!	!	!	!	!
.	.	.	.	4A/	.	.	.	.	.
!LO:LB:g=original	!	!	!	!	!	!	!	!	!
1D	a-	1D	a-	2B-/	.	.	.	2r	.
.	.	.	.	.	.	4e\	.	.	.
.	.	.	.	4A/	-ti-	2d\	.	2.a\	a-
!	!	!	!	!LO:TX:t=P:problem=kreska pseudotaktowa	!	!	!	!	!
.	.	.	.	4G/	.	.	.	.	.
!	!	!	!	!LO:LB:g=original	!	!	!	!	!
=59-	=59-	=59-	=59-	=59-	=59-	=59-	=59-	=59-	=59-
!	!	!	!	!	!	!LO:TX:t=P:problem=kreska pseudotaktowa	!	!	!
1F	-ver-	1F	-ver-	2.A/	-sti	1c	-sti	.	.
.	.	.	.	.	.	.	.	4b-\	.
!	!	!	!	!	!	!	!	!LO:TX:t=P:problem=kreska pseudotaktowa	!
.	.	.	.	.	.	.	.	2cc\	.
!	!	!	!	!LO:TX:t=P:problem=kreska pseudotaktowa	!	!	!	!	!
.	.	.	.	4B-/	.	.	.	.	.
1.F	-ti-	1.F	-ti-	2c,\	.	2.f\	Ca-	2a\	-ver-
!	!	!	!	!LO:TX:t=P:problem=kreska pseudotaktowa	!	!	!	!	!
.	.	.	.	2d\	Cap-	.	.	2.f/	-ti-
!	!	!	!	!	!	!LO:TX:t=P:problem=kreska pseudotaktowa	!	!	!
.	.	.	.	.	.	4e\	.	.	.
=60-	=60-	=60-	=60-	=60-	=60-	=60-	=60-	=60-	=60-
.	.	.	.	2.A/	-tivi-	2d\	-pti-	.	.
.	.	.	.	.	.	.	.	4g\	.
!LO:TX:t=P:problem=kreska pseudotaktowa	!	!LO:TX:t=P:problem=kreska pseudotaktowa	!	!	!	!	!	!	!
2F\	-ſti	2F\	-sti	.	.	2.c/	-vi-	4a\	.
!	!	!	!	!LO:TX:t=P:problem=kreska pseudotaktowa	!	!	!	!LO:TX:t=P:problem=kreska pseudotaktowa	!
.	.	.	.	4G/	-ta-	.	.	4b-\	.
1F	Cap-	1F	cap-	4A/	.	.	.	2cc\	.
.	.	.	.	4G/	.	4B-/	.	.	.
!	!	!	!	!	!	!	!	!LO:TX:t=P:problem=kreska pseudotaktowa	!
.	.	.	.	4A/	.	4A/	.	2dd\	.
.	.	.	.	4B-/	.	4G/	.	.	.
=61-	=61-	=61-	=61-	=61-	=61-	=61-	=61-	=61-	=61-
2F\	-ti-	2F\	-ti-	2c\	.	2.A/	-ta-	2cc,\	-sti
!	!	!	!	!LO:TX:t=P:problem=kreska pseudotaktowa	!	!	!	!	!
2F\	-vi-	2F\	-vi-	2d\	.	.	.	1a\	Ca-
!	!	!	!	!	!	!LO:TX:t=P:problem=kreska pseudotaktowa	!	!	!
.	.	.	.	.	.	4B-/	.	.	.
*lig	*	*lig	*	*	*	*	*	*	*
1E	-ta-	1E	-ta-	2e\	-tem	2c/	-tem	.	.
.	.	.	.	1e,\	.	1c/	.	4g/	.
!	!	!	!	!	!	!	!	!LO:TX:t=P:problem=kreska pseudotaktowa	!
.	.	.	.	.	.	.	.	4f/	.
=62-	=62-	=62-	=62-	=62-	=62-	=62-	=62-	=62-	=62-
1C	.	1C	.	.	.	.	.	2g\	-pti-
!	!	!	!	!LO:TX:t=P:problem=kreska pseudotaktowa	!	!LO:TX:t=P:problem=kreska pseudotaktowa	!	!LO:TX:t=P:problem=kreska pseudotaktowa	!
.	.	.	.	2e\	Cap-	2c/	.	2a\	-vi-
*Xlig	*	*Xlig	*	*	*	*	*	*	*
!	!	!LO:LB:g=original	!	!	!	!	!	!	!
*lig	*	*lig	*	*	*	*	*	*	*
1D	-tem	1D	-tem	2d\	-ti-	4B-/	Cap-	4f/	-ta-
.	.	.	.	.	.	4A/	-ti-	4e/	.
.	.	.	.	2.f\	-vi-	2d\	-vi-	4f/	.
!	!	!	!	!	!	!	!	!LO:TX:t=P:problem=kreska pseudotaktowa	!
.	.	.	.	.	.	.	.	4g/	.
=63-	=63-	=63-	=63-	=63-	=63-	=63-	=63-	=63-	=63-
!LO:TX:t=P:problem=kreska pseudotaktowa	!	!LO:TX:t=P:problem=kreska pseudotaktowa	!	!	!	!	!	!	!
1F	.	1F	.	.	.	2.c\	-ta	4a\	.
.	.	.	.	4e\	.	.	.	4g\	.
!	!	!	!	!LO:TX:t=P:problem=kreska pseudotaktowa	!	!	!	!	!
.	.	.	.	(<2.c\	-ta-	.	.	4a\	.
!	!	!	!	!	!	!	!	!LO:TX:t=P:problem=kreska pseudotaktowa	!
.	.	.	.	.	.	4d\	.	4b-\	.
*Xlig	*	*Xlig	*	*	*	*	*	*	*
1E	Ja-	1E	Ja-	.	.	4e\	.	2cc\	.
.	.	.	.	4d\)	.	4f\	.	.	.
!	!	!	!	!	!	!	!	!LO:TX:t=P:problem=kreska pseudotaktowa	!
.	.	.	.	(>4e\	-tem	4g\	.	2g\	-tem
!	!	!	!	!LO:TX:t=P:problem=kreska pseudotaktowa	!	!	!	!	!
.	.	.	.	4c\)	.	4e\	.	.	.
=64-	=64-	=64-	=64-	=64-	=64-	=64-	=64-	=64-	=64-
0D	-cob.	0D	.	2d\	Ja-	4f\	.	2b-\	.
.	.	.	.	.	.	4e\	.	.	.
.	.	.	.	1c\	.	4d\	.	4a\	Ja-
*	*	*	*	*	*	*custos:f	*	*	*
!	!	!	!	!	!	!LO:TX:t=P:problem=kreska pseudotaktowa	!	!LO:TX:t=P:problem=kreska pseudotaktowa	!
.	.	.	.	.	.	4f\	.	4g\	.
!	!	!	!	!	!	!LO:PB:g=original	!	!	!
.	.	.	.	.	.	2.f\	Ja-	2a\	.
.	.	.	.	2Bn/	.	.	.	2d/	.
.	.	.	.	.	.	8e\L	.	.	.
.	.	.	.	.	.	8d\J	.	.	.
=65-	=65-	=65-	=65-	=65-	=65-	=65-	=65-	=65-	=65-
*	*	*	*	*custos:c	*	*	*	*	*
*	*	*	*	*	*	*	*	*custos:c	*
!	!	!	!	!LO:TX:i:b:t=Vertat	!	!	!	!	!
0C;>	.	0C;>	-cob.	0c;>	-cob.	0e;>	-cob.	0g;>	-cob.
!	!	!	!	!LO:PB:g=original	!	!	!	!LO:PB:g=original	!
=66||	=66||	=66||	=66||	=66||	=66||	=66||	=66||	=66||	=66||
*M1/2	*	*M1/2	*	*M1/2	*	*M1/2	*	*M1/2	*
*met(c|)	*	*met(c|)	*	*met(c|)	*	*met(c|)	*	*met(c|)	*
!	!	!	!	!	!	!LO:TX:t=P:problem=kreska pseudotaktowa	!	!LO:TX:t=P:problem=kreska pseudotaktowa	!
1C	Glo-	1C	Glo-	2r	.	1r	.	0r	.
.	.	.	.	1c\	Glo-	.	.	.	.
2.D\	.	2.D/	.	.	.	2r	.	.	.
!	!	!	!	!LO:TX:t=P:problem=kreska pseudotaktowa	!	!	!	!	!
.	.	.	.	2B-X/	-ri-	2.f\	Glo-	.	.
4D\	-ri-	4D/	-ri-	.	.	.	.	.	.
=67-	=67-	=67-	=67-	=67-	=67-	=67-	=67-	=67-	=67-
*lig	*	*lig	*	*	*	*	*	*	*
1C	-a	1C	-a	2.c/	-a	.	.	2r	.
.	.	.	.	.	.	4f\	-ri-	.	.
!	!	!	!	!	!	!LO:TX:t=P:problem=kreska pseudotaktowa	!	!	!
.	.	.	.	.	.	2e\	-a	2.cc\	Glo-
!	!	!	!	!LO:TX:t=P:problem=kreska pseudotaktowa	!	!	!	!	!
.	.	.	.	4B-/	.	.	.	.	.
*custos:F	*	*	*	*	*	*	*	*	*
!LO:TX:t=P:problem=kreska pseudotaktowa	!	!LO:TX:t=P:problem=kreska pseudotaktowa	!	!	!	!	!	!	!
1F	.	1F	.	2A/	.	2.f\	.	.	-ri-
.	.	.	.	.	.	.	.	4b-\	-a
!	!	!	!	!	!	!	!	!LO:TX:t=P:problem=kreska pseudotaktowa	!
.	.	.	.	1c\	Pa-	.	.	2a\	Pa-
!	!	!	!	!	!	!LO:TX:t=P:problem=kreska pseudotaktowa	!	!	!
.	.	.	.	.	.	4g\	Pa-	.	.
*Xlig	*	*Xlig	*	*	*	*	*	*	*
!LO:LB:g=original	!	!	!	!	!	!	!	!	!
=68-	=68-	=68-	=68-	=68-	=68-	=68-	=68-	=68-	=68-
!LO:TX:t=P:problem=kreska pseudotaktowa	!	!	!	!	!	!	!	!	!
1F	Pa-	1F	Pa-	.	.	4a\	.	4cc\	.
.	.	.	.	.	.	4g\	.	4b-\	.
!	!	!	!	!LO:TX:t=P:problem=kreska pseudotaktowa	!	!	!	!	!
.	.	.	.	2d\	.	1f\	.	4a\	.
!	!	!	!	!	!	!	!	!LO:TX:t=P:problem=kreska pseudotaktowa	!
.	.	.	.	.	.	.	.	4g\	.
2F\	-tri	2F\	-tri	4c/	.	.	.	2a\	.
.	.	.	.	4B-/	.	.	.	.	.
!LO:TX:t=P:problem=kreska pseudotaktowa	!	!LO:TX:t=P:problem=kreska pseudotaktowa	!	!	!	!LO:TX:t=P:problem=kreska pseudotaktowa	!	!LO:TX:t=P:problem=kreska pseudotaktowa	!
2F\	et	2F\	et	4A/	.	2c/	.	2a\	-tri
!	!	!	!	!LO:TX:t=P:problem=kreska pseudotaktowa	!	!	!	!	!
.	.	.	.	4G/	.	.	.	.	.
=69-	=69-	=69-	=69-	=69-	=69-	=69-	=69-	=69-	=69-
2F\	Fi-	2F\	Fi-	2.A/	-tri	2d\	-tri	4f/	et
.	.	.	.	.	.	.	.	4g/	.
!LO:TX:t=P:problem=kreska pseudotaktowa	!	!LO:TX:t=P:problem=kreska pseudotaktowa	!	!	!	!LO:TX:t=P:problem=kreska pseudotaktowa	!	!	!
2F\	-li-	2F\	-li-	.	.	2c\	et	4a/	.
!	!	!	!	!LO:TX:t=P:problem=kreska pseudotaktowa	!	!	!	!LO:TX:t=P:problem=kreska pseudotaktowa	!
.	.	.	.	4A/	et	.	.	4b-/	.
2F,\	-o	2F,\	-o	2A/	Fi-	2f\	.	2cc\	.
!LO:TX:t=P:problem=kreska pseudotaktowa	!	!LO:TX:t=P:problem=kreska pseudotaktowa	!	!LO:TX:t=P:problem=kreska pseudotaktowa	!	!LO:TX:t=P:problem=kreska pseudotaktowa	!	!LO:TX:t=P:problem=kreska pseudotaktowa	!
2F\	et	2F\	et	2A/	-li-	2f\	Fi-	2dd\	.
=70-	=70-	=70-	=70-	=70-	=70-	=70-	=70-	=70-	=70-
*lig	*	*lig	*	*	*	*	*	*	*
1E	Spi-	1E	Spi-	2G,/	-o	4g\	-li-	2.cc\	Fi-
.	.	.	.	.	.	4f\	-o	.	.
.	.	.	.	2.c/	et	4e\	.	.	.
!	!	!	!	!	!	!LO:TX:t=P:problem=kreska pseudotaktowa	!	!LO:TX:t=P:problem=kreska pseudotaktowa	!
.	.	.	.	.	.	4d\	.	4b-\	-li-
!	!	!	!	!	!	!	!	!LO:TX:t=P:problem=kreska pseudotaktowa	!
1F	-ri-	1F	.	.	.	2c\	et	1a	-o
.	.	.	.	4B-/	.	.	.	.	.
!	!	!	!	!LO:TX:t=P:problem=kreska pseudotaktowa	!	!LO:TX:t=P:problem=kreska pseudotaktowa	!	!	!
.	.	.	.	2A/	Spi-	2f\	Spi-	.	.
*Xlig	*	*Xlig	*	*	*	*	*	*	*
=71-	=71-	=71-	=71-	=71-	=71-	=71-	=71-	=71-	=71-
2G\	-tu-	2G\	-ri-	4B-/	.	2d\	.	(>4g\	et
.	.	.	.	4c/	ri-	.	.	4a\	.
2G\	-i	2G\	-tu-	4d/	.	2.B-/	-ri-	4b-\	.
!	!	!	!	!LO:TX:t=P:problem=kreska pseudotaktowa	!	!	!	!LO:TX:t=P:problem=kreska pseudotaktowa	!
.	.	.	.	4e\	.	.	.	4cc\)	.
!LO:TX:t=P:problem=kreska pseudotaktowa	!	!LO:TX:t=P:problem=kreska pseudotaktowa	!	!	!	!	!	!	!
1G,	.	1G,	-i	2d\	.	.	.	2dd\	.
.	.	.	.	.	.	4c/	.	.	.
!	!	!	!	!LO:TX:t=P:problem=kreska pseudotaktowa	!	!	!	!LO:TX:t=P:problem=kreska pseudotaktowa	!
.	.	.	.	2B-/	.	4d/	.	2g/	Spi-
!	!	!	!	!	!	!LO:TX:t=P:problem=kreska pseudotaktowa	!	!	!
.	.	.	.	.	.	4e/	.	.	.
=72-	=72-	=72-	=72-	=72-	=72-	=72-	=72-	=72-	=72-
*lig	*	*lig	*	*	*	*	*	*	*
1F	San-	1F	San-	2c/	-tu-	2.f\	.	2a\	-ri-
!	!	!	!	!LO:TX:t=P:problem=kreska pseudotaktowa	!	!	!	!LO:TX:t=P:problem=kreska pseudotaktowa	!
.	.	.	.	2A/	-i	.	.	2cc\	-tu-
!	!	!	!	!	!	!LO:TX:t=P:problem=kreska pseudotaktowa	!	!	!
.	.	.	.	.	.	4e\	.	.	.
1G	.	1G	.	4B-/	San-	4d\	.	2b-X,\	-i
.	.	.	.	4c/	.	4c\	.	.	.
!	!	!	!	!	!	!LO:TX:t=P:problem=kreska pseudotaktowa	!	!LO:TX:t=P:problem=kreska pseudotaktowa	!
.	.	.	.	4d/	.	2B-/	-tu-	2b-\	San-
!	!	!	!	!LO:TX:t=P:problem=kreska pseudotaktowa	!	!	!	!	!
.	.	.	.	4e\	.	.	.	.	.
*Xlig	*	*Xlig	*	*	*	*	*	*	*
=73-	=73-	=73-	=73-	=73-	=73-	=73-	=73-	=73-	=73-
!LO:TX:t=P:problem=kreska pseudotaktowa	!	!LO:TX:t=P:problem=kreska pseudotaktowa	!	!	!	!	!	!	!
1F	-cto.	1F	-cto	2f\	.	4c/	-i	2a,\	-cto
.	.	.	.	.	.	4B-/	.	.	.
!	!	!	!	!	!	!	!	!LO:TX:t=P:problem=kreska pseudotaktowa	!
.	.	.	.	2c/	.	4A/	.	[>2cc\	Si-
.	.	.	.	.	.	4G/	.	.	.
!	!	!LO:LB:g=original	!	!LO:TX:t=P:problem=kreska pseudotaktowa	!	!	!	!	!
1D	Si-	1D	Si-	1d	-cto	2A/	San-	2cc\]	.
!	!	!	!	!	!	!	!	!LO:TX:t=P:problem=kreska pseudotaktowa	!
.	.	.	.	.	.	2d\	.	2b-\	-cut
=74-	=74-	=74-	=74-	=74-	=74-	=74-	=74-	=74-	=74-
!LO:TX:t=P:problem=kreska pseudotaktowa	!	!LO:TX:t=P:problem=kreska pseudotaktowa	!	!	!	!LO:TX:t=P:problem=kreska pseudotaktowa	!	!	!
1F	-cut	1F	-cut	2r	.	0c	-cto	2a\	e-
!	!	!	!	!LO:TX:t=P:problem=kreska pseudotaktowa	!	!	!	!	!
.	.	.	.	2c\	Si-	.	.	4f/	.
!	!	!	!	!	!	!	!	!LO:TX:t=P:problem=kreska pseudotaktowa	!
.	.	.	.	.	.	.	.	4g/	.
1F	e-	1.F	e-	2c\	-cut	.	.	4a\	.
.	.	.	.	.	.	.	.	4g\	.
!	!	!	!	!LO:TX:t=P:problem=kreska pseudotaktowa	!	!	!	!	!
.	.	.	.	2c\	e-	.	.	4a\	.
!	!	!	!	!	!	!	!	!LO:TX:t=P:problem=kreska pseudotaktowa	!
.	.	.	.	.	.	.	.	4b-\	.
!	!	!	!	!	!	!LO:LB:g=original	!	!	!
=75-	=75-	=75-	=75-	=75-	=75-	=75-	=75-	=75-	=75-
!LO:TX:t=P:problem=kreska pseudotaktowa	!	!	!	!	!	!	!	!	!
1F	-rat	.	.	2A/	-rat	2r	.	2cc\	.
!	!	!LO:TX:t=P:problem=kreska pseudotaktowa	!	!	!	!LO:TX:t=P:problem=kreska pseudotaktowa	!	!LO:TX:t=P:problem=kreska pseudotaktowa	!
.	.	2F\	-rat	4F/	.	2c\	Sicut	2a\	-rat
*	*	*	*	*custos:A	*	*	*	*	*
!	!	!	!	!LO:TX:t=P:problem=kreska pseudotaktowa	!	!	!	!	!
.	.	.	.	4G/	in	.	.	.	.
!LO:LB:g=original	!	!	!	!LO:LB:g=original	!	!	!	!LO:LB:g=original	!
2F\	in	2F\	in	4A/	prin-	2c/	e-	2a\	in
.	.	.	.	4G/	.	.	.	.	.
!	!	!LO:TX:t=P:problem=kreska pseudotaktowa	!	!	!	!LO:TX:t=P:problem=kreska pseudotaktowa	!	!	!
2F\	prin-	2F\	prin-	4A/	.	2c/	-rat	2.cc\	prin-
!	!	!	!	!LO:TX:t=P:problem=kreska pseudotaktowa	!	!	!	!	!
.	.	.	.	4B-/	.	.	.	.	.
=76-	=76-	=76-	=76-	=76-	=76-	=76-	=76-	=76-	=76-
2F\	-ci-	2F\	-ci-	2c\	.	2A/	.	.	.
.	.	.	.	.	.	.	.	4b-\	.
!	!	!	!	!LO:TX:t=P:problem=kreska pseudotaktowa	!	!	!	!LO:TX:t=P:problem=kreska pseudotaktowa	!
2F\	-pi-	2F\	-pi-	2d\	.	4F/	in	2a\	.
!	!	!	!	!	!	!LO:TX:t=P:problem=kreska pseudotaktowa	!	!	!
.	.	.	.	.	.	4G/	.	.	.
!LO:TX:t=P:problem=kreska pseudotaktowa	!	!LO:TX:t=P:problem=kreska pseudotaktowa	!	!	!	!	!	!	!
1F	-o	1F	-o	2.c\	-ci-	(<4A/	prin-	2a\	-ci-
.	.	.	.	.	.	4G/)	.	.	.
!	!	!	!	!	!	!	!	!LO:TX:t=P:problem=kreska pseudotaktowa	!
.	.	.	.	.	.	(<4A/	-ci-	2a\	-pi-
!	!	!	!	!LO:TX:t=P:problem=kreska pseudotaktowa	!	!	!	!	!
.	.	.	.	4d\	-pi-	4B-/)	.	.	.
=77-	=77-	=77-	=77-	=77-	=77-	=77-	=77-	=77-	=77-
*lig	*	*lig	*	*	*	*	*	*	*
1E	et	1En	et	4e\	-o	2c,/	-pio	2g,/	-o
.	.	.	.	4f\	.	.	.	.	.
.	.	.	.	2.g\	.	1G/	et	2.cc\	et
!	!	!LO:TX:t=P:problem=kreska pseudotaktowa	!	!	!	!	!	!	!
1C	nunc	1C	.	.	.	.	.	.	.
.	.	.	.	4f\	et	.	.	4b-\	.
!	!	!	!	!LO:TX:t=P:problem=kreska pseudotaktowa	!	!	!	!	!
.	.	.	.	2e\	.	1A/	.	4a\	.
!	!	!	!	!	!	!	!	!LO:TX:t=P:problem=kreska pseudotaktowa	!
.	.	.	.	.	.	.	.	4g\	.
*Xlig	*	*Xlig	*	*	*	*	*	*	*
=78-	=78-	=78-	=78-	=78-	=78-	=78-	=78-	=78-	=78-
!LO:TX:t=P:problem=kreska pseudotaktowa	!	!LO:TX:t=P:problem=kreska pseudotaktowa	!	!	!	!	!	!	!
1D	et	1D	nunc	2.d\	nunc	.	.	2.f/	nunc
!	!	!	!	!	!	!LO:TX:t=P:problem=kreska pseudotaktowa	!	!	!
.	.	.	.	.	.	2B-/	nunc	.	.
!	!	!	!	!LO:TX:t=P:problem=kreska pseudotaktowa	!	!	!	!LO:TX:t=P:problem=kreska pseudotaktowa	!
.	.	.	.	4d\	.	.	.	4g/	.
*lig	*	*lig	*	*	*	*	*	*	*
1F	sem-	1F	et	2c/	et	4A/	.	4a\	et
.	.	.	.	.	.	4B-/	.	4g\	.
!	!	!	!	!LO:TX:t=P:problem=kreska pseudotaktowa	!	!	!	!	!
.	.	.	.	2A/	sem-	4c/	[[et]]	4a\	.
!	!	!	!	!	!	!LO:TX:t=P:problem=kreska pseudotaktowa	!	!LO:TX:t=P:problem=kreska pseudotaktowa	!
.	.	.	.	.	.	4d/	.	4b-\	.
=79-	=79-	=79-	=79-	=79-	=79-	=79-	=79-	=79-	=79-
!	!	!	!	!	!	!	!	!LO:TX:t=P:problem=kreska pseudotaktowa	!
1E	.	1E	.	2G/	.	2e,\	.	1cc	sem-
.	.	.	.	1c\	.	2e\	-et	.	.
*Xlig	*	*Xlig	*	*	*	*	*	*	*
!	!	!	!	!	!	!	!	!LO:TX:t=P:problem=kreska pseudotaktowa	!
1D	-per	1D	sem-	.	.	1f	sem-	1dd	.
.	.	.	.	2Bn/	.	.	.	.	.
=80-	=80-	=80-	=80-	=80-	=80-	=80-	=80-	=80-	=80-
!LO:TX:t=P:problem=kreska pseudotaktowa	!	!LO:TX:t=P:problem=kreska pseudotaktowa	!	!LO:TX:t=P:problem=kreska pseudotaktowa	!	!LO:TX:t=P:problem=kreska pseudotaktowa	!	!LO:TX:t=P:problem=kreska pseudotaktowa	!
1C	.	1C,	-per	1c	-per	1e	-per	1g	-per
!	!	!	!	!LO:TX:t=P:problem=kreska pseudotaktowa	!	!	!	!LO:TX:t=P:problem=kreska pseudotaktowa	!
1D	et	1D	et	1r	.	2r	.	0r	.
.	.	.	.	.	.	1f\	et	.	.
=81-	=81-	=81-	=81-	=81-	=81-	=81-	=81-	=81-	=81-
!LO:TX:t=P:problem=kreska pseudotaktowa	!	!LO:TX:t=P:problem=kreska pseudotaktowa	!	!	!	!	!	!	!
1F	in	1F	in	2r	.	.	.	.	.
!	!	!	!	!	!	!LO:TX:t=P:problem=kreska pseudotaktowa	!	!	!
.	.	.	.	1c\	et	2f\	in	.	.
1.F	sae-	1.F	sae-	.	.	4f\	sae-	2r	.
.	.	.	.	.	.	4e\	.	.	.
!	!	!	!	!LO:TX:t=P:problem=kreska pseudotaktowa	!	!	!	!	!
.	.	.	.	2c/	in	4f\	.	1cc\	et
.	.	.	.	.	.	4g\	.	.	.
=82-	=82-	=82-	=82-	=82-	=82-	=82-	=82-	=82-	=82-
.	.	.	.	4c/	sae-	4a\	.	.	.
.	.	.	.	4B-y/	.	4g\	.	.	.
!	!	!	!	!	!	!	!	!LO:TX:t=P:problem=kreska pseudotaktowa	!
2F\	-cu-	2F\	-cu	4A/	.	4f\	.	2cc\	in
!	!	!	!	!	!	!LO:TX:t=P:problem=kreska pseudotaktowa	!	!	!
.	.	.	.	4G/	.	4e\	.	.	.
!LO:TX:t=P:problem=kreska pseudotaktowa	!	!LO:TX:t=P:problem=kreska pseudotaktowa	!	!	!	!	!	!	!
1F	-la	1F	-la	2A/	.	2.f\	-cu-	4cc\	sae-
.	.	.	.	.	.	.	.	4b-\	.
!	!	!	!	!LO:TX:t=P:problem=kreska pseudotaktowa	!	!	!	!	!
.	.	.	.	2c/	-cu-	.	.	4a\	.
!	!	!	!	!	!	!LO:TX:t=P:problem=kreska pseudotaktowa	!	!LO:TX:t=P:problem=kreska pseudotaktowa	!
.	.	.	.	.	.	4f\	.	4g\	.
=83-	=83-	=83-	=83-	=83-	=83-	=83-	=83-	=83-	=83-
!	!	!	!	!LO:TX:t=P:problem=kreska pseudotaktowa	!	!	!	!	!
0F	Sae-	0F	sae-	1c	-la	4f\	-la	2a\	.
.	.	.	.	.	.	4g\	.	.	.
!	!	!	!	!	!	!	!	!LO:TX:t=P:problem=kreska pseudotaktowa	!
.	.	.	.	.	.	2.a\	sae-	2f/	.
.	.	.	.	4c/	sae-	.	.	4f/	.
.	.	.	.	4B-/	.	4g\	-cu-	4g/	.
.	.	.	.	4A/	.	4f\	.	4a/	.
!	!	!	!	!	!	!LO:TX:t=P:problem=kreska pseudotaktowa	!	!LO:TX:t=P:problem=kreska pseudotaktowa	!
.	.	.	.	4G/	.	4e\	-lo-	4b-/	.
=84-	=84-	=84-	=84-	=84-	=84-	=84-	=84-	=84-	=84-
1F	-cu-	1F	-cu-	2A/	.	2f\	-rum	2.a\	.
!	!	!	!	!LO:TX:t=P:problem=kreska pseudotaktowa	!	!LO:TX:t=P:problem=kreska pseudotaktowa	!	!	!
.	.	.	.	2A/	-cu-	2c/	.	.	.
!	!	!	!	!	!	!	!	!LO:TX:t=P:problem=kreska pseudotaktowa	!
.	.	.	.	.	.	.	.	4a\	-cu-
*lig	*	*lig	*	*	*	*	*	*	*
1F	-lo-	1F	-lo-	4A/	-lo-	2.c\	.	1a	-la
.	.	.	.	4G/	.	.	.	.	.
.	.	.	.	4A/	.	.	.	.	.
!	!	!	!	!	!	!LO:TX:t=P:problem=kreska pseudotaktowa	!	!	!
.	.	.	.	4B-/	.	4d\	sae-	.	.
=85-	=85-	=85-	=85-	=85-	=85-	=85-	=85-	=85-	=85-
*	*	*custos:C	*	*	*	*	*	*	*
!	!	!	!	!	!	!	!	!LO:TX:t=P:problem=kreska pseudotaktowa	!
1E	.	1E	.	2c/	.	4e\	.	1g	.
.	.	.	.	.	.	4f\	.	.	.
.	.	.	.	2G/	-rum	1g\	.	.	.
*Xlig	*	*Xlig	*	*	*	*	*	*	*
!	!	!LO:LB:g=original	!	!	!	!	!	!	!
*lig	*	*lig	*	*	*	*	*	*	*
1C	-rum	1C	-rum	2.c/	.	.	.	2r	.
!	!	!	!	!	!	!LO:TX:t=P:problem=kreska pseudotaktowa	!	!	!
.	.	.	.	.	.	2e\	-cu-	2g/	sae-
!	!	!	!	!LO:TX:t=P:problem=kreska pseudotaktowa	!	!	!	!	!
.	.	.	.	4B-/	a-	.	.	.	.
=86-	=86-	=86-	=86-	=86-	=86-	=86-	=86-	=86-	=86-
!LO:TX:t=P:problem=kreska pseudotaktowa	!	!LO:TX:t=P:problem=kreska pseudotaktowa	!	!	!	!	!	!	!
1D	.	1D	.	4A/	.	2d\	-lo-	2.f/	.
.	.	.	.	4G/	.	.	.	.	.
!	!	!	!	!	!	!LO:TX:t=P:problem=kreska pseudotaktowa	!	!	!
.	.	.	.	1A/	-men	2d\	-rum	.	.
!	!	!	!	!	!	!	!	!LO:TX:t=P:problem=kreska pseudotaktowa	!
.	.	.	.	.	.	.	.	4g/	-cu-
*Xlig	*	*Xlig	*	*	*	*	*	*	*
!	!	!	!	!	!	!LO:LB:g=original	!	!	!
*lig	*	*lig	*	*	*	*	*	*	*
1F	a-	1F	a-	.	.	2c\	a-	2.a\	-lo-
!	!	!	!	!LO:TX:t=P:problem=kreska pseudotaktowa	!	!LO:TX:t=P:problem=kreska pseudotaktowa	!	!	!
.	.	.	.	2A/	.	2d\	-men	.	.
.	.	.	.	.	.	.	.	4b-\	.
!	!	!	!	!LO:LB:g=original	!	!	!	!	!
=87-	=87-	=87-	=87-	=87-	=87-	=87-	=87-	=87-	=87-
!	!	!	!	!	!	!	!	!LO:TX:t=P:problem=kreska pseudotaktowa	!
1E	-men	1E	.	2.G/	a-	2e\	.	1cc	-rum
.	.	.	.	.	.	1g\	a-	.	.
!	!	!	!	!LO:TX:t=P:problem=kreska pseudotaktowa	!	!	!	!	!
.	.	.	.	4A/	.	.	.	.	.
*Xlig	*	*Xlig	*	*	*	*	*	*	*
!	!	!	!	!	!	!	!	!LO:LB:g=original	!
0D	.	0D	.	2B-/	.	.	.	0dd	a-
.	.	.	.	4A/	.	4f\	.	.	.
!	!	!	!	!LO:TX:t=P:problem=kreska pseudotaktowa	!	!LO:TX:t=P:problem=kreska pseudotaktowa	!	!	!
.	.	.	.	4G/	.	4e\	.	.	.
=88-	=88-	=88-	=88-	=88-	=88-	=88-	=88-	=88-	=88-
.	.	.	.	2.A/	.	1f	.	.	.
.	.	.	.	4Bn/	.	.	.	.	.
!	!	!LO:TX:i:b:t=alleluia vertat	!	!	!	!	!	!	!
0C;>	.	0C;>	-men.	0c;>	-men.	0e;>	-men.	0g;>	-men.
==	==	==	==	==	==	==	==	==	==
*-	*-	*-	*-	*-	*-	*-	*-	*-	*-
!!!system-decoration: [(s1,s2,s3,s4,s5)]
!!!RDF**kern: > = above
!!!RDF**kern: < = below
!!!EED: Mateusz Mrugas
!!!EST: 2021-03-01
!!!ENC: Berenika Jozajtis
!!!END: 2021-02-15
